!!!!SEGMENT: pl-cz--iii-31--001_bolehovsky-josef--litaniae-kyrie.krn
!!!cenid: 17xx:828
!!!COM: Bolehovský, Josef
!!!COM-rismid: pe30000404
!!!CDT: 1743-1811
!!!CNT: Czech
!!!OPR: Litaniae
!!!OTL: Kyrie
!!!OMV: 001
!!!PDT:
!!!AGN: Sacred; Mass
!!!SMS-siglum: PL-CZ
!!!SMS-shelfmark: III-31
!!!SMS-shelfwork: 001-001 M
!!!SMS-variant:
!!!SMS-altvar:
!!!NIFC-rismid: 300237604
!!!URL-scan: http://repozytorium.nifc.pl/skany/pl-cz-nut--iii-31
!!!ONB-nifc: UWAGA: części Litanii: Kyrie, Sancta Maria, Virgo prudentissima,
**kern	**fb	**dynam	**kern	**dynam	**kern	**dynam	**kern	**kern	**text	**kern	**text	**dynam	**kern	**text	**dynam	**kern	**text	**dynam	**kern	**kern
*part10	*	*part10	*part9	*part9	*part8	*part8	*part7	*part6	*part6	*part5	*part5	*part5	*part4	*part4	*part4	*part3	*part3	*part3	*part2	*part1
*staff10	*	*	*staff9	*	*staff8	*	*staff7	*staff6	*staff6	*staff5	*staff5	*	*staff4	*staff4	*	*staff3	*staff3	*	*staff2	*staff1
*group4	*	*	*group3	*	*group3	*	*group3	*group2	*	*group2	*	*	*group2	*	*	*group2	*	*	*group1	*group1
*Iorgan	*	*	*Ivioln	*	*Ivioln	*	*Ivioln	*Iempty	*	*Itenor	*	*	*Ialto	*	*	*Ivox	*	*	*Iempty	*Iempty
*I"Organo	*	*	*I"Violino 2do	*	*I"Violino Primo	*	*I"Violino Principali	*I"Baſso	*	*I"Tenore	*	*	*I"Alto	*	*	*I"Canto	*	*	*I"Clarino Secondo in D#	*I"Clarino Primo in D#
*I'org	*	*	*I'vl 2	*	*I'vl 1	*	*I'vl princ	*I'B	*	*I'T.	*	*	*I'A	*	*	*I'S	*	*	*I'Clno 2	*I'Clno 1
*clefF4	*	*	*clefG2	*	*clefG2	*	*clefG2	*clefF4	*	*clefC4	*	*	*clefC3	*	*	*clefC1	*	*	*clefG2	*clefG2
*	*	*	*	*	*	*	*	*	*	*	*	*	*	*	*	*	*	*	*ITrd-1c-2	*ITrd-1c-2
*k[f#c#]	*	*	*k[f#c#]	*	*k[f#c#]	*	*k[f#c#]	*k[f#c#]	*	*k[f#c#]	*	*	*k[f#c#]	*	*	*k[f#c#]	*	*	*k[f#c#]	*k[f#c#]
*D:	*	*	*D:	*	*D:	*	*D:	*D:	*	*D:	*	*	*D:	*	*	*D:	*	*	*	*
*M3/4	*	*	*M3/4	*	*M3/4	*	*M3/4	*M3/4	*	*M3/4	*	*	*M3/4	*	*	*M3/4	*	*	*M3/4	*M3/4
=1	=1	=1	=1	=1	=1	=1	=1	=1	=1	=1	=1	=1	=1	=1	=1	=1	=1	=1	=1	=1
*	*	*	*	*	*	*	*	*	*	*2\right	*	*	*2\right	*	*	*2\right	*	*	*	*2\right
!	!	!	!	!	!	!	!	!LO:TX:a:t=problem:partia basso pisana inną ręką	!	!LO:TX:a:t=problem:kolejność znaków c# f#	!	!	!	!	!	!LO:TX:a:t=problem:kolejność znaków c# f#	!	!	!	!
!LO:TX:a:t=problem:klucz i znaki tylko w 1 systemie	!	!	!	!	!	!	!	!LO:TX:a:t=problem&colon;4\right [t. 1-4]	!	!LO:TX:a:t=problem:klucz i znaki tylko w 1 systemie	!	!	!LO:TX:a:t=problem:klucz i znaki tylko w 1 systemie	!	!	!LO:TX:a:t=problem:klucz i znaki tylko w 1 systemie	!	!	!	!
!LO:TX:a:t=problem:kolejność znaków c# f#	!	!	!LO:TX:a:t=problem:klucz i znaki tylko w 1 systemie	!	!LO:TX:a:t=problem:klucz i znaki tylko w 1 systemie	!	!	!LO:TX:a:t=problem:kolejność znaków c# f#	!	!	!	!	!	!	!	!	!	!	!	!LO:TX:a:t=problem:klucz tylko w 1 systemie
!LO:TX:a:t=Tutti	!	!	!LO:TX:a:t=Tutti	!	!LO:TX:a:t=Tutt&colon;	!	!	!LO:TX:a:t=problem:brak znaków przykluczowych w pierwszym systemie	!	!	!	!	!	!	!	!	!	!	!LO:TX:a:t=problem:klucz tylko w 1 systemie	!
!LO:TX:a:t=Tarde	!	!	!LO:TX:a:t=Tarde	!	!LO:TX:a:t=Tard&colon;	!	!	!	!	!LO:TX:a:t=Tutti	!	!	!LO:TX:a:t=Tutti	!	!	!LO:TX:a:t=Tutti	!	!	!LO:TX:a:t=Tard&colon;	!LO:TX:a:t=Tard&colon;
!LO:TX:b:t=Kyrie	!	!	!LO:TX:b:t=Kyrie	!	!LO:TX:b:t=Kyrie	!	!LO:TX:a:t=Tacet (nie zapisany na karcie głosu)	!LO:TX:a:t=Tarde	!	!LO:TX:a:t=Tarde	!	!	!LO:TX:a:t=Tarde	!	!	!LO:TX:a:t=Tarde	!	!	!LO:TX:a:t=K (Kyrie)	!LO:TX:a:t=K (Kyrie)
4D\	.	.	4.f#/	.	4.dd\	.	2.ryy	4D\	Ky-	2A\	Ky-	.	2f#\	Ky-	.	2dd\	Ky-	.	2f#/	2dd\
4F#\	6	.	.	.	.	.	.	4F#\	-ri-	.	.	.	.	.	.	.	.	.	.	.
.	.	.	16e/LL	.	16cc#\LL	.	.	.	.	.	.	.	.	.	.	.	.	.	.	.
.	.	.	16f#/JJ	.	16dd\JJ	.	.	.	.	.	.	.	.	.	.	.	.	.	.	.
.	.	.	8qqa/	.	.	.	.	.	.	.	.	.	.	.	.	.	.	.	.	.
4A\	.	.	8g/L	.	8ee\L	.	.	4A\	.	4A\	-ri-	.	4e\	-ri-	.	4cc#\	-ri-	.	4a/	4ee\
.	.	.	16f#/L	.	16dd\L	.	.	.	.	.	.	.	.	.	.	.	.	.	.	.
.	.	.	16e/JJ	.	16cc#\JJ	.	.	.	.	.	.	.	.	.	.	.	.	.	.	.
=2	=2	=2	=2	=2	=2	=2	=2	=2	=2	=2	=2	=2	=2	=2	=2	=2	=2	=2	=2	=2
!	!	!	!LO:TX:a:t=problem&colon;8\right&colon;global	!	!	!	!	!	!	!	!	!	!	!	!	!	!	!	!	!
4d\	5 3	.	8f#\L	.	8dd\L	.	2.ryy	4d\	-e	4A\	-e	.	4f#\	-e	.	4dd\	-e	.	4f#/	4dd\
.	.	.	8a\	.	8cc#\	.	.	.	.	.	.	.	.	.	.	.	.	.	.	.
4r	8 6	.	8b\	.	8dd\	.	.	4r	.	4r	.	.	4r	.	.	4r	.	.	4r	4r
.	.	.	8cc#\	.	8ee\	.	.	.	.	.	.	.	.	.	.	.	.	.	.	.
4r	6: 4:	.	8dd\	.	8ff#\	.	.	4r	.	4r	.	.	4r	.	.	4r	.	.	4r	4r
.	.	.	8ee\J	.	8gg\J	.	.	.	.	.	.	.	.	.	.	.	.	.	.	.
=3	=3	=3	=3	=3	=3	=3	=3	=3	=3	=3	=3	=3	=3	=3	=3	=3	=3	=3	=3	=3
*	*	*	*	*	*	*	*	*2\right	*	*	*	*	*	*	*	*	*	*	*	*
!	!	!	!LO:TX:a:t=problem&colon;4\right&colon;global	!	!	!	!	!	!	!	!	!	!	!	!	!	!	!	!	!
4D\	.	.	4ff#\	.	4aa\	.	2.ryy	2.D\	e-	2.d\	e-	.	4f#\	e-	.	(4a\	e-	.	4d/	4dd\
4D\	5 3	.	4ff#\	.	4ddd\	.	.	.	.	.	.	.	(4b\	-lei-	.	4dd\)	.	.	8r	8r
.	.	.	.	.	.	.	.	.	.	.	.	.	.	.	.	.	.	.	16d/LL	16dd\LL
.	.	.	.	.	.	.	.	.	.	.	.	.	.	.	.	.	.	.	16d/JJ	16dd\JJ
4D\	.	.	4gg\	.	4bb\	.	.	.	.	.	.	.	4g\)	.	.	4b\	-lei-	.	8d/L	8dd\L
.	.	.	.	.	.	.	.	.	.	.	.	.	.	.	.	.	.	.	8d/J	8dd\J
=4	=4	=4	=4	=4	=4	=4	=4	=4	=4	=4	=4	=4	=4	=4	=4	=4	=4	=4	=4	=4
4D\	.	.	4gg\	.	4bb\	.	2.ryy	4d\	-lei-	4d\	-lei-	.	4g\	.	.	4b\	.	.	8d/L	8dd\L
.	.	.	.	.	.	.	.	.	.	.	.	.	.	.	.	.	.	.	16d/L	16dd\L
.	.	.	.	.	.	.	.	.	.	.	.	.	.	.	.	.	.	.	16d/JJ	16dd\JJ
4D\	.	.	4ff#\	.	4aa\	.	.	4D/	-son	4d\	-ſon	.	4f#\	-ſon	.	4a\	-ſon	.	4d/	4dd\
4r	.	.	4r	.	4r	.	.	4r	.	4r	.	.	4r	.	.	4r	.	.	4r	4r
=5	=5	=5	=5	=5	=5	=5	=5	=5	=5	=5	=5	=5	=5	=5	=5	=5	=5	=5	=5	=5
!	!	!LO:DY:a	!	!	!	!	!	!	!	!LO:TX:a:t=2	!	!	!	!	!LO:DY:a	!	!	!LO:DY:a	!LO:N:vis=0	!LO:N:vis=0
!	!	!LO:DY:t=p.	!	!	!	!	!	!LO:N:vis=0	!	!LO:N:vis=0	!	!	!	!	!	!	!	!	!	!
4AA/	.	p	8r	.	8r	.	2.ryy	1.r	.	1.r	.	.	2.e\	e-	p	2.g\	e-	p	1.r	1.r
!	!	!	!	!LO:DY:t=pi	!	!	!	!	!	!	!	!	!	!	!	!	!	!	!	!
!	!	!	!	!LO:DY:a	!	!	!	!	!	!	!	!	!	!	!	!	!	!	!	!
.	.	.	8ee`/L	p	8gg`\L	p	.	.	.	.	.	.	.	.	.	.	.	.	.	.
4r	.	.	8cc#`/	.	8ee`\	.	.	.	.	.	.	.	.	.	.	.	.	.	.	.
.	.	.	8g`/	.	8cc#`\	.	.	.	.	.	.	.	.	.	.	.	.	.	.	.
4r	.	.	8e`/	.	8g`\	.	.	.	.	.	.	.	.	.	.	.	.	.	.	.
.	.	.	8c#`/J	.	8e`\J	.	.	.	.	.	.	.	.	.	.	.	.	.	.	.
=6	=6	=6	=6	=6	=6	=6	=6	=6	=6	=6	=6	=6	=6	=6	=6	=6	=6	=6	=6	=6
!	!	!	!	!	!LO:LB:g=original	!	!	!	!	!	!	!	!	!	!	!	!	!	!	!
4D\	.	.	8r	.	8r	.	2.ryy	.	.	.	.	.	2.d\	-lei-	.	2.f#/	-lei-	.	.	.
.	.	.	8dd`/L	.	8ff#`\L	.	.	.	.	.	.	.	.	.	.	.	.	.	.	.
4r	.	.	8a`/	.	8dd`\	.	.	.	.	.	.	.	.	.	.	.	.	.	.	.
.	.	.	8f#`/	.	8a`\	.	.	.	.	.	.	.	.	.	.	.	.	.	.	.
4r	.	.	8d`/	.	8f#`\	.	.	.	.	.	.	.	.	.	.	.	.	.	.	.
.	.	.	8A`/J	.	8d`\J	.	.	.	.	.	.	.	.	.	.	.	.	.	.	.
=7	=7	=7	=7	=7	=7	=7	=7	=7	=7	=7	=7	=7	=7	=7	=7	=7	=7	=7	=7	=7
!LO:DY:t=Fis	!	!	!	!	!LO:TX:t=P:problem:mixed beam	!	!	!	!	!	!	!	!	!	!LO:DY:a	!	!	!LO:DY:a	!	!
8r	.	.	8r	.	8A/L	.	2.ryy	8r	.	2.A\	e-	.	2.e\	-son	f	2.cc#\	-son	f	4a/	4ee\
8AA/L	3:	.	8ee\	f	8ccc#\	f	.	8AA/	{e-	.	.	.	.	.	.	.	.	.	.	.
*	*	*	*tremolo	*	*	*	*	*	*	*	*	*	*	*	*	*	*	*	*	*
8C#/	.	.	8ee\L	.	8ccc#\	.	.	8C#\L	-lei-	.	.	.	.	.	.	.	.	.	4r	4r
8E/J	.	.	8ee\	.	8ccc#\	.	.	8E\J	.	.	.	.	.	.	.	.	.	.	.	.
!LO:TX:t=P:problem:mixed beam	!	!	!	!	!	!	!	!	!	!	!	!	!	!	!	!	!	!	!	!
8A\L	.	.	8ee\	.	8ccc#\	.	.	4A\	-son}	.	.	.	.	.	.	.	.	.	4a/	4ee\
8AA/J	.	.	8ee\J	.	8ccc#\J	.	.	.	.	.	.	.	.	.	.	.	.	.	.	.
=8	=8	=8	=8	=8	=8	=8	=8	=8	=8	=8	=8	=8	=8	=8	=8	=8	=8	=8	=8	=8
!LO:LB:g=original	!	!	!LO:LB:g=original	!	!	!	!	!	!	!	!	!	!	!	!	!	!	!	!	!
8r	.	.	8r	.	8r	.	2.ryy	8r	.	2.A\	-lei-	.	2.f#\	e-	.	2.dd\	e-	.	4dd\	4ff#\
!LO:TX:t=P:problem:mixed beam	!	!	!	!	!	!	!	!	!	!	!	!	!	!	!	!	!	!	!	!
8D\L	.	.	8ff#\L	.	8ddd\L	.	.	8D\L	e-	.	.	.	.	.	.	.	.	.	.	.
8F#\	.	.	8ff#\	.	8ddd\	.	.	8F#\	.	.	.	.	.	.	.	.	.	.	4r	4r
8A\	.	.	8ff#\	.	8ddd\	.	.	8A\	.	.	.	.	.	.	.	.	.	.	.	.
8d\	.	.	8ff#\J	.	8ddd\	.	.	8d\	.	.	.	.	.	.	.	.	.	.	4dd\	4ff#\
8D/J	.	.	8dd\	.	8ff#\J	.	.	8D\J	-lei-	.	.	.	.	.	.	.	.	.	.	.
=9	=9	=9	=9	=9	=9	=9	=9	=9	=9	=9	=9	=9	=9	=9	=9	=9	=9	=9	=9	=9
4A\	4	.	4dd\	.	4ff#\	.	2.ryy	4A\	.	4A\	.	.	4f#\	-lei-	.	4dd\	-lei-	.	4dd\	4ff#\
4AA/	3	.	4cc#\	.	4ee\	.	.	4AA/	-son	4A\	-son	.	4e\	-son	.	4cc#\	-son	.	4a/	4ee\
4r	.	.	4r	.	4r	.	.	4r	.	4r	.	.	4r	.	.	4r	.	.	4r	4r
=10	=10	=10	=10	=10	=10	=10	=10	=10	=10	=10	=10	=10	=10	=10	=10	=10	=10	=10	=10	=10
!	!	!	!	!	!	!	!	!LO:LB:g=original	!	!LO:N:vis=00	!	!	!	!	!	!LO:LB:g=original	!	!	!	!LO:LB:g=original
!	!	!LO:DY:a	!	!	!	!	!	!LO:TX:a:t=4.	!	!LO:TX:a:t=4	!	!	!LO:N:vis=00	!	!	!LO:N:vis=00	!	!	!LO:N:vis=00	!LO:N:vis=00
!	!	!LO:DY:t=p.	!	!	!	!	!	!LO:N:vis=00	!	!	!	!	!	!	!	!	!	!	!	!
4D\	.	p	8r	.	8r	.	2.ryy	0.r	.	0.r	.	.	0.r	.	.	0.r	.	.	0.r	0.r
!	!	!	!	!LO:DY:a	!	!	!	!	!	!	!	!	!	!	!	!	!	!	!	!
.	.	.	4f#/	p	4aa\	p	.	.	.	.	.	.	.	.	.	.	.	.	.	.
4DD/	.	.	.	.	.	.	.	.	.	.	.	.	.	.	.	.	.	.	.	.
.	.	.	4e/	.	4gg\	.	.	.	.	.	.	.	.	.	.	.	.	.	.	.
4r	.	.	.	.	.	.	.	.	.	.	.	.	.	.	.	.	.	.	.	.
.	.	.	8d/	.	8ff#\	.	.	.	.	.	.	.	.	.	.	.	.	.	.	.
=11	=11	=11	=11	=11	=11	=11	=11	=11	=11	=11	=11	=11	=11	=11	=11	=11	=11	=11	=11	=11
4D\	.	.	8r	.	8r	.	2.ryy	.	.	.	.	.	.	.	.	.	.	.	.	.
.	.	.	4a/	.	4ff#\	.	.	.	.	.	.	.	.	.	.	.	.	.	.	.
4DD/	.	.	.	.	.	.	.	.	.	.	.	.	.	.	.	.	.	.	.	.
.	.	.	4g/	.	4ee\	.	.	.	.	.	.	.	.	.	.	.	.	.	.	.
4r	.	.	.	.	.	.	.	.	.	.	.	.	.	.	.	.	.	.	.	.
.	.	.	8f#/	.	8dd\	.	.	.	.	.	.	.	.	.	.	.	.	.	.	.
=12	=12	=12	=12	=12	=12	=12	=12	=12	=12	=12	=12	=12	=12	=12	=12	=12	=12	=12	=12	=12
4G\	.	.	8r	.	8r	.	2.ryy	.	.	.	.	.	.	.	.	.	.	.	.	.
.	.	.	4g/	.	4bb\	.	.	.	.	.	.	.	.	.	.	.	.	.	.	.
4GG/	.	.	.	.	.	.	.	.	.	.	.	.	.	.	.	.	.	.	.	.
.	.	.	4f#/	.	4aa\	.	.	.	.	.	.	.	.	.	.	.	.	.	.	.
4r	.	.	.	.	.	.	.	.	.	.	.	.	.	.	.	.	.	.	.	.
.	.	.	8e/	.	8gg\	.	.	.	.	.	.	.	.	.	.	.	.	.	.	.
=13	=13	=13	=13	=13	=13	=13	=13	=13	=13	=13	=13	=13	=13	=13	=13	=13	=13	=13	=13	=13
4G\	.	.	8r	.	8r	.	2.ryy	.	.	.	.	.	.	.	.	.	.	.	.	.
.	.	.	4b/	.	4gg\	.	.	.	.	.	.	.	.	.	.	.	.	.	.	.
4r	.	.	.	.	.	.	.	.	.	.	.	.	.	.	.	.	.	.	.	.
.	.	.	4a/	.	4ff#\	.	.	.	.	.	.	.	.	.	.	.	.	.	.	.
4r	.	.	.	.	.	.	.	.	.	.	.	.	.	.	.	.	.	.	.	.
.	.	.	8g/	.	8ee\	.	.	.	.	.	.	.	.	.	.	.	.	.	.	.
=14	=14	=14	=14	=14	=14	=14	=14	=14	=14	=14	=14	=14	=14	=14	=14	=14	=14	=14	=14	=14
!	!	!LO:DY:a	!	!	!LO:LB:g=original	!LO:DY:a	!	!	!	!LO:LB:g=original	!	!LO:DY:a	!	!	!	!	!	!	!	!
4.G\	.	f	8b/L	f	8ee\L	f	2.ryy	4.G\	Ky-	4.B\	Ky-	p	4.b\	Ky-	.	4.ee\	Ky-	.	2.r	2.r
.	.	.	8b/	.	32ee\LL	.	.	.	.	.	.	.	.	.	.	.	.	.	.	.
.	.	.	.	.	32dd#X\	.	.	.	.	.	.	.	.	.	.	.	.	.	.	.
.	.	.	.	.	32ee\	.	.	.	.	.	.	.	.	.	.	.	.	.	.	.
.	.	.	.	.	32ff#\JJJ	.	.	.	.	.	.	.	.	.	.	.	.	.	.	.
.	.	.	8b/	.	8gg\L	.	.	.	.	.	.	.	.	.	.	.	.	.	.	.
8G\L	6:	.	8b/	.	8ee\	.	.	8G\	-ri-	8B\	-ri-	.	8b\	-ri-	.	8ee\	-ri-	.	.	.
8G\	.	.	8b/	.	8bb\	.	.	8G\	-e	8B\	-e	.	8b\	-e	.	8ee\	-e	.	.	.
8G\J	5	.	8b/J	.	8dd#\J	.	.	8G\	e-	8B\	e-	.	8b\	e-	.	8dd\	e-	.	.	.
=15	=15	=15	=15	=15	=15	=15	=15	=15	=15	=15	=15	=15	=15	=15	=15	=15	=15	=15	=15	=15
!	!	!	!	!	!	!	!	!	!	!	!	!	!	!	!	!	!	!	!LO:LB:g=original	!
4G\	.	.	4e/	.	4cc#\	.	2.ryy	4G\	-lei-	8B\L	-lei-	.	4a\	-lei-	.	4cc#\	-lei-	.	4a/	4ee\
.	.	.	.	.	.	.	.	.	.	8e\J	.	.	.	.	.	.	.	.	.	.
!	!	!	!LO:TX:t=P:problem:mixed beam	!	!	!	!	!	!	!	!	!	!	!	!	!	!	!	!	!
4F#\	.	.	8f#/L	.	8dd\L	.	.	4F#\	-son	4f#\	-ſon	.	4a\	-ſon	.	4dd\	-son	.	4dd\	4ff#\
.	.	.	8dd\	.	8ff#\	.	.	.	.	.	.	.	.	.	.	.	.	.	.	.
4r	.	.	8ee\	.	8gg\	.	.	4r	.	4r	.	.	8r	.	.	8r	.	.	4r	4r
.	.	.	8ff#\J	.	8aa\J	.	.	.	.	.	.	.	8f#\	e-	.	8a\	e-	.	.	.
=16	=16	=16	=16	=16	=16	=16	=16	=16	=16	=16	=16	=16	=16	=16	=16	=16	=16	=16	=16	=16
4r	.	.	8gg\L	.	8bb\L	.	2.ryy	4r	.	4r	.	.	8g\L	-lei-	.	8b\L	-lei-	.	4r	4r
.	.	.	8ee\	.	8ccc#\J	.	.	.	.	.	.	.	8e\J	.	.	8cc#\	.	.	.	.
4r	.	.	8ff#\	.	8ddd\L	.	.	4r	.	4r	.	.	8f#\	-son	.	8dd\	.	.	8r	8r
.	.	.	8gg\	.	8aa\	.	.	.	.	.	.	.	8a\	e-	.	8ff#\	.	.	8ff#\L	8aa\L
8r	.	.	8ee\	.	8gg\	.	.	8r	.	8r	.	.	8g\L	-lei-	.	8ee\	.	.	8ee\	8gg\
8G#X\	7 5	.	8dd\J	.	8ff#\J	.	.	8G#X\	{e-	8B\	{e-	.	8f#\J	.	.	8dd\J	.	.	8dd\J	8ff#\J
=17	=17	=17	=17	=17	=17	=17	=17	=17	=17	=17	=17	=17	=17	=17	=17	=17	=17	=17	=17	=17
4A\	6 4	.	4ee\	.	4ff#\	.	2.ryy	4A\	-lei-	4A\	-lei-	.	4f#\	.	.	4dd\	.	.	4dd\	4ff#\
4AA/	5 3	.	4cc#\	.	4ee\	.	.	4AA/	-son}	4A\	-ſon}	.	4e\	-son	.	4cc#\	-son	.	4a/	4ee\
4r	.	.	4r	.	4r	.	.	4r	.	4r	.	.	4r	.	.	4r	.	.	4r	4r
=18	=18	=18	=18	=18	=18	=18	=18	=18	=18	=18	=18	=18	=18	=18	=18	=18	=18	=18	=18	=18
*	*	*	*	*	*tremolo	*	*	*	*	*	*	*	*	*	*	*	*	*	*	*
!LO:LB:g=original	!	!	!LO:LB:g=original	!LO:DY:a	!	!LO:DY:a	!	!LO:N:vis=00	!	!LO:N:vis=00	!	!	!	!	!LO:DY:b	!	!	!LO:DY:b	!LO:N:vis=00	!LO:N:vis=00
!	!	!	!	!LO:DY:t=pi	!	!	!	!	!	!	!	!	!	!	!	!	!	!	!	!
2.r	.	.	8A/L	p	8A/L	p	2.ryy	0.r	.	0.r	.	.	2cc#\	Chri-	p	2ee\	Chris-	p	0.r	0.r
.	.	.	8A/	.	8A/	.	.	.	.	.	.	.	.	.	.	.	.	.	.	.
.	.	.	8A/	.	8A/	.	.	.	.	.	.	.	.	.	.	.	.	.	.	.
.	.	.	8A/	.	8A/	.	.	.	.	.	.	.	.	.	.	.	.	.	.	.
.	.	.	8A/	.	8A/	.	.	.	.	.	.	.	8dd\L	.	.	8ff#\L	.	.	.	.
.	.	.	8A/J	.	8A/J	.	.	.	.	.	.	.	8cc#\J	.	.	8ee\J	.	.	.	.
=19	=19	=19	=19	=19	=19	=19	=19	=19	=19	=19	=19	=19	=19	=19	=19	=19	=19	=19	=19	=19
!	!	!	!	!LO:DY:a	!	!	!	!	!	!	!	!	!	!	!	!	!	!	!	!
!	!	!	!	!LO:DY:t=fr	!	!	!	!	!	!	!	!	!	!	!	!	!	!	!	!
8r	.	.	8r	f	8r	.	2.ryy	.	.	.	.	.	2b\	-ſte	.	4dd\	-te	.	.	.
!	!	!	!	!	!	!LO:DY:a	!	!	!	!	!	!	!	!	!	!	!	!	!	!
8E`\L	.	.	8e/L	.	8e/L	f	.	.	.	.	.	.	.	.	.	.	.	.	.	.
8G#X`\	.	.	8g#X/	.	8g#X/	.	.	.	.	.	.	.	.	.	.	4r	.	.	.	.
8B`\	.	.	8b/	.	8b/	.	.	.	.	.	.	.	.	.	.	.	.	.	.	.
8G#`\	.	.	8g#/	.	8g#/	.	.	.	.	.	.	.	4r	.	.	4r	.	.	.	.
8E`\J	.	.	8e/J	.	8e/J	.	.	.	.	.	.	.	.	.	.	.	.	.	.	.
=20	=20	=20	=20	=20	=20	=20	=20	=20	=20	=20	=20	=20	=20	=20	=20	=20	=20	=20	=20	=20
!	!	!	!	!LO:DY:a	!	!LO:DY:a	!	!	!	!	!	!	!	!	!	!	!	!	!	!
!	!	!	!	!LO:DY:t=p:	!	!	!	!	!	!	!	!	!	!	!	!	!	!	!	!
4E\	.	.	8e/L	p	8e/L	p	2.ryy	.	.	.	.	.	8b\L	e-	.	8dd\L	e-	.	.	.
.	.	.	8e/	.	8e/	.	.	.	.	.	.	.	8a\J	.	.	8cc#\J	.	.	.	.
4r	.	.	8e/	.	8e/	.	.	.	.	.	.	.	8b\L	-lei-	.	8dd\L	-lei-	.	.	.
.	.	.	8e/	.	8e/	.	.	.	.	.	.	.	8dd\	.	.	8ff#\	.	.	.	.
4r	.	.	8e/	.	8e/	.	.	.	.	.	.	.	8cc#\	.	.	8ee\	.	.	.	.
.	.	.	8e/J	.	8e/J	.	.	.	.	.	.	.	8b\J	.	.	8dd\J	.	.	.	.
=21	=21	=21	=21	=21	=21	=21	=21	=21	=21	=21	=21	=21	=21	=21	=21	=21	=21	=21	=21	=21
!	!	!	!	!LO:DY:a	!	!	!	!	!	!	!	!	!	!	!	!LO:LB:g=original	!	!	!	!
!	!	!	!	!LO:DY:t=f:	!	!	!	!	!	!	!	!	!	!	!	!	!	!	!	!
8r	.	.	8r	f	8r	.	2.ryy	.	.	.	.	.	2a\	-son	.	2cc#\	-son	.	.	.
!	!	!	!	!	!	!LO:DY:a	!	!	!	!	!	!	!	!	!	!	!	!	!	!
8A`\L	.	.	8a/L	.	8a/L	f	.	.	.	.	.	.	.	.	.	.	.	.	.	.
8E`\	.	.	8e/	.	8e/	.	.	.	.	.	.	.	.	.	.	.	.	.	.	.
8A`\	.	.	8a/	.	8a/	.	.	.	.	.	.	.	.	.	.	.	.	.	.	.
8C#`\	.	.	8c#/	.	8c#/	.	.	.	.	.	.	.	4r	.	.	4r	.	.	.	.
8E`\J	.	.	8e/J	.	8e/J	.	.	.	.	.	.	.	.	.	.	.	.	.	.	.
=22	=22	=22	=22	=22	=22	=22	=22	=22	=22	=22	=22	=22	=22	=22	=22	=22	=22	=22	=22	=22
!	!	!	!	!	!	!	!	!	!	!	!	!	!LO:LB:g=original	!	!	!	!	!	!	!
!	!	!	!	!	!	!	!	!	!	!	!	!	!LO:N:vis=00	!	!	!	!	!	!	!
!	!	!	!	!	!	!	!	!LO:TX:a:t=SIC&colon;t=Chri-	!	!	!	!LO:DY:a	!LO:TX:a:t=4	!	!	!LO:N:vis=00	!	!	!LO:N:vis=00	!LO:N:vis=00
4AA`/	.	.	8A/L	.	8A/L	.	2.ryy	2c#\	Chris-	2e\	Chri-	p	0.r	.	.	0.r	.	.	0.r	0.r
.	.	.	8A/	.	8A/	.	.	.	.	.	.	.	.	.	.	.	.	.	.	.
4r	.	.	8A/	.	8A/	.	.	.	.	.	.	.	.	.	.	.	.	.	.	.
.	.	.	8A/	.	8A/	.	.	.	.	.	.	.	.	.	.	.	.	.	.	.
4r	.	.	8A/	.	8A/	.	.	(8d\L	.	8f#\L	.	.	.	.	.	.	.	.	.	.
.	.	.	8A/J	.	8A/J	.	.	8c#\J)	.	8e\J	.	.	.	.	.	.	.	.	.	.
=23	=23	=23	=23	=23	=23	=23	=23	=23	=23	=23	=23	=23	=23	=23	=23	=23	=23	=23	=23	=23
!	!	!	!	!	!LO:LB:g=original	!	!	!LO:LB:g=original	!	!	!	!	!	!	!	!	!	!	!	!
8r	.	.	8r	.	8r	.	2.ryy	2B\	-ſte	2d\	-ſte	.	.	.	.	.	.	.	.	.
8E`\L	.	.	8e/L	.	8e/L	.	.	.	.	.	.	.	.	.	.	.	.	.	.	.
!	!	!	!LO:TX:a:t=SIC:s=8g#	!	!	!	!	!	!	!	!	!	!	!	!	!	!	!	!	!
8G#X`\	.	.	8g/	.	8g#X/	.	.	.	.	.	.	.	.	.	.	.	.	.	.	.
8B`\	.	.	8b/	.	8b/	.	.	.	.	.	.	.	.	.	.	.	.	.	.	.
8G#`\	.	.	8g/	.	8g#/	.	.	4r	.	4r	.	.	.	.	.	.	.	.	.	.
8F#`\J	.	.	8f#/J	.	8f#/J	.	.	.	.	.	.	.	.	.	.	.	.	.	.	.
=24	=24	=24	=24	=24	=24	=24	=24	=24	=24	=24	=24	=24	=24	=24	=24	=24	=24	=24	=24	=24
4E\	.	.	8e/L	.	8e/L	.	2.ryy	8B\L	e-	8d\L	e-	.	.	.	.	.	.	.	.	.
.	.	.	8e/	.	8e/	.	.	8A\J	.	8c#\J	.	.	.	.	.	.	.	.	.	.
4r	.	.	8e/	.	8e/	.	.	8B\L	-lei-	8d\L	-lei-	.	.	.	.	.	.	.	.	.
.	.	.	8e/	.	8e/	.	.	8d\	.	8f#\	.	.	.	.	.	.	.	.	.	.
4r	.	.	8e/	.	8e/	.	.	8c#\	.	8e\	.	.	.	.	.	.	.	.	.	.
.	.	.	8e/J	.	8e/J	.	.	8B\J	.	8d\J	.	.	.	.	.	.	.	.	.	.
=25	=25	=25	=25	=25	=25	=25	=25	=25	=25	=25	=25	=25	=25	=25	=25	=25	=25	=25	=25	=25
!	!	!	!	!	!	!	!	!	!	!LO:LB:g=original	!	!	!	!	!	!	!	!	!	!
8r	.	.	8r	.	8r	.	2.ryy	2A\	-son	2c#\	-son	.	.	.	.	.	.	.	.	.
8A`\L	.	.	8a/L	.	8a/L	.	.	.	.	.	.	.	.	.	.	.	.	.	.	.
8E`\	.	.	8e/	.	8e/	.	.	.	.	.	.	.	.	.	.	.	.	.	.	.
8A`\	.	.	8a/	.	8a/	.	.	.	.	.	.	.	.	.	.	.	.	.	.	.
8C#`\	.	.	8c#/	.	8c#/	.	.	4r	.	4r	.	.	.	.	.	.	.	.	.	.
8E`\J	.	.	8e/J	.	8e/J	.	.	.	.	.	.	.	.	.	.	.	.	.	.	.
=26	=26	=26	=26	=26	=26	=26	=26	=26	=26	=26	=26	=26	=26	=26	=26	=26	=26	=26	=26	=26
!	!	!	!	!	!LO:TX:t=P:problem:mixed beam	!	!	!	!	!	!	!LO:DY:a	!	!	!	!	!	!	!	!
8AA/L	5 3	.	8A/L	.	8A/L	.	2.ryy	8r	.	2A\	(Chris)-	f	2e\	Chri-	.	2cc#\	Chri-	.	4a/	4ee\
8AA/	.	.	8e/J	.	8cc#\	.	.	8AA/L	Ky-	.	.	.	.	.	.	.	.	.	.	.
*	*	*	*	*	*	*	*	*	*	*	*	*	*	*	*	*	*	*	*	*tremolo
8C#/	.	.	8e/L	.	8cc#\	.	.	8C#/J	.	.	.	.	.	.	.	.	.	.	8a/L	8ee\L
8E/J	.	.	8e/	.	8cc#\	.	.	8E\	-ri-	.	.	.	.	.	.	.	.	.	8a/	8ee\
!LO:TX:t=P:problem:mixed beam	!	!	!	!	!	!	!	!	!	!	!	!	!	!	!	!	!	!	!	!
8A\L	.	.	8e/	.	8cc#\	.	.	8A\	-e	8A\	-te	.	8e\	-ſte	.	8cc#\	-ſte	.	8a/	8ee\
8AA/J	.	.	8e/J	.	8cc#\J	.	.	8G\	e-	8A\	e-	.	8e\	e-	.	8cc#\	e-	.	8a/J	8ee\J
=27	=27	=27	=27	=27	=27	=27	=27	=27	=27	=27	=27	=27	=27	=27	=27	=27	=27	=27	=27	=27
8r	.	.	8r	.	8r	.	2.ryy	4F#\	-lei-	4A\	-lei-	.	4f#\	-lei-	.	4dd\	-lei-	.	4dd\	4ff#\
!LO:TX:t=P:problem:mixed beam	!	!	!	!	!	!	!	!	!	!	!	!	!	!	!	!	!	!	!	!
8D`\L	3	.	8f#/	.	8dd\	.	.	.	.	.	.	.	.	.	.	.	.	.	.	.
*	*	*	*	*	*2\right	*	*	*	*	*	*	*	*	*	*	*	*	*	*	*
8F#`\	.	.	8f#/L	.	8dd\L	.	.	4D\	-son	4A\	-ſon	.	4f#\	-ſon	.	4dd\	-ſon	.	4dd\	4ff#\
8A`\	.	.	8f#/	.	8dd\	.	.	.	.	.	.	.	.	.	.	.	.	.	.	.
8d`\	.	.	8f#/	.	8dd\	.	.	4r	.	4r	.	.	4r	.	.	4r	.	.	4r	4r
8D`/J	.	.	8f#/J	.	8dd\J	.	.	.	.	.	.	.	.	.	.	.	.	.	.	.
=28	=28	=28	=28	=28	=28	=28	=28	=28	=28	=28	=28	=28	=28	=28	=28	=28	=28	=28	=28	=28
!LO:LB:g=original	!	!	!	!	!	!	!	!	!	!	!	!	!	!	!	!	!	!	!LO:N:vis=0	!LO:N:vis=0
8r	.	.	8r	.	8r	.	2.ryy	8r	.	4.B\	Ky-	.	4.f#\	Ky-	.	4.dd#X\	Ky-	.	1.r	1.r
!LO:TX:t=P:problem:mixed beam	!	!	!	!	!	!	!	!	!	!	!	!	!	!	!	!	!	!	!	!
8BB\L	.	.	8f#/	.	8dd#X\	.	.	8BB/L	(Chri)-	.	.	.	.	.	.	.	.	.	.	.
8D#X\	.	.	8f#/L	.	8dd#\L	.	.	8D#X/	.	.	.	.	.	.	.	.	.	.	.	.
8F#\	.	.	8f#/	.	8dd#\	.	.	8F#/J	.	8B\	-ri-	.	8f#\	-ri-	.	8dd#\	-ri-	.	.	.
8B\	.	.	8f#/	.	8dd#\	.	.	8B\	-ſte	8B\	-e	.	8f#\	-e	.	8dd#\	-e	.	.	.
8BB/J	.	.	8f#/J	.	8dd#\J	.	.	8A\	e-	8B\	e-	.	8f#\	e-	.	8dd#\	e-	.	.	.
*	*	*	*Xtremolo	*	*	*	*	*	*	*	*	*	*	*	*	*	*	*	*	*
=29	=29	=29	=29	=29	=29	=29	=29	=29	=29	=29	=29	=29	=29	=29	=29	=29	=29	=29	=29	=29
!	!	!	!	!	!	!	!	!LO:LB:g=original	!	!	!	!	!	!	!	!	!	!	!	!
!	!	!	!LO:LB:g=original	!	!	!	!	!LO:TX:a:t=SIC:s=4G#	!	!	!	!	!	!	!	!	!	!	!	!
8r	.	.	4g#X/	.	4ee\	.	2.ryy	4G\	-lei-	4B\	-lei-	.	4g#X\	-lei-	.	4ee\	-lei-	.	.	.
8E\L	.	.	.	.	.	.	.	.	.	.	.	.	.	.	.	.	.	.	.	.
8G#X\	.	.	4g#/	.	4e/	.	.	4E\	-son	4B\	-ſon	.	4g#\	-son	.	4ee\	-son	.	.	.
8B\	.	.	.	.	.	.	.	.	.	.	.	.	.	.	.	.	.	.	.	.
8e\	.	.	4r	.	4r	.	.	4r	.	4r	.	.	4r	.	.	4r	.	.	.	.
8G#\J	.	.	.	.	.	.	.	.	.	.	.	.	.	.	.	.	.	.	.	.
=30	=30	=30	=30	=30	=30	=30	=30	=30	=30	=30	=30	=30	=30	=30	=30	=30	=30	=30	=30	=30
8r	.	.	16b/LL	.	16ddn\LL	.	2.ryy	2G#X\	(Chri)-	2e\	(Chris)-	.	2b\	Chri-	.	2ddn\	Chri-	.	4dd\	4ee\
.	.	.	16a/	.	16cc#\	.	.	.	.	.	.	.	.	.	.	.	.	.	.	.
!LO:TX:a:t=problem:tremolo połączone jedną belką (przez 4 takty)	!	!	!	!	!	!	!	!	!	!	!	!	!	!	!	!	!	!	!	!
8G#X\	.	.	16g#X/	.	16b\	.	.	.	.	.	.	.	.	.	.	.	.	.	.	.
.	.	.	16a/JJ	.	16cc#\JJ	.	.	.	.	.	.	.	.	.	.	.	.	.	.	.
*tremolo	*	*	*	*	*	*	*	*	*	*	*	*	*	*	*	*	*	*	*	*
*2\right	*	*	*	*	*	*	*	*	*	*	*	*	*	*	*	*	*	*	*	*
8G#\L	6: 5:	.	8b\L	.	8dd\L	.	.	.	.	.	.	.	.	.	.	.	.	.	4r	4r
8G#\	.	.	8gg#X\	.	8bb\	.	.	.	.	.	.	.	.	.	.	.	.	.	.	.
8G#\	.	.	8dd\	.	8gg#X\	.	.	4G#\	-ſte	4e\	-te	.	4b\	-ſte	.	4dd\	-ſte	.	4r	4r
8G#\J	.	.	8b\J	.	8dd\J	.	.	.	.	.	.	.	.	.	.	.	.	.	.	.
*	*	*	*	*	*Xtremolo	*	*	*	*	*	*	*	*	*	*	*	*	*	*	*
=31	=31	=31	=31	=31	=31	=31	=31	=31	=31	=31	=31	=31	=31	=31	=31	=31	=31	=31	=31	=31
8r	.	.	16a/LL	.	16cc#\LL	.	2.ryy	2A\	au-	2e\	au-	.	2a\	au-	.	2cc#\	au-	.	8a/L	8ee\L
.	.	.	16g#X/	.	16b\	.	.	.	.	.	.	.	.	.	.	.	.	.	.	.
8A\	.	.	16a/	.	16cc#\	.	.	.	.	.	.	.	.	.	.	.	.	.	16a/L	16ee\L
.	.	.	16g#/JJ	.	16b\JJ	.	.	.	.	.	.	.	.	.	.	.	.	.	16a/JJ	16ee\JJ
!	!	!	!LO:TX:t=P:problem:mixed beam	!	!	!	!	!	!	!	!	!	!	!	!	!	!	!	!	!
8A\L	.	.	8a/L	.	8cc#\L	.	.	.	.	.	.	.	.	.	.	.	.	.	8a/L	8ee\L
8A\	.	.	8aa\	.	8ccc#\	.	.	.	.	.	.	.	.	.	.	.	.	.	8a/	8ee\
8A\	.	.	8ee\	.	8aa\	.	.	4A\	-di	4e\	-di	.	4a\	-di	.	4cc#\	-di	.	8a/	8ee\
8A\J	.	.	8cc#\J	.	8ee\J	.	.	.	.	.	.	.	.	.	.	.	.	.	8a/J	8ee\J
=32	=32	=32	=32	=32	=32	=32	=32	=32	=32	=32	=32	=32	=32	=32	=32	=32	=32	=32	=32	=32
!	!	!	!	!	!LO:LB:g=original	!	!	!LO:TX:a:t=SIC:=4G#	!	!	!	!	!	!	!	!	!	!	!	!
8r	.	.	16b/LL	.	16dd\LL	.	2.ryy	4G\	(Chri)-	4e\	(Chris)-	.	4b\	(Chris)-	.	4dd\	(Chris)-	.	4ee\	4ee\
.	.	.	16a/	.	16cc#\	.	.	.	.	.	.	.	.	.	.	.	.	.	.	.
8G#X\	6 5	.	16g/	.	16b\	.	.	.	.	.	.	.	.	.	.	.	.	.	.	.
.	.	.	16a/JJ	.	16cc#\JJ	.	.	.	.	.	.	.	.	.	.	.	.	.	.	.
!	!	!	!	!	!	!	!	!LO:TX:a:t=SIC:s=4G#	!	!	!	!	!	!	!	!	!	!	!	!
8G#\L	.	.	8b\L	.	8dd\L	.	.	4G\	-ſte	4e\	-te	.	4b\	-te	.	4dd\	-te	.	4r	4r
8G#\	.	.	8gg\	.	8bb\	.	.	.	.	.	.	.	.	.	.	.	.	.	.	.
!	!	!	!	!	!	!	!	!LO:TX:a:t=SIC:s=4G#	!	!	!	!	!	!	!	!	!	!	!	!
8G#\	.	.	8dd\	.	8gg#X\	.	.	4G\	ex-	4e\	ex-	.	4b\	ex-	.	4dd\	ex-	.	4r	4r
8G#\J	.	.	8b\J	.	8dd\J	.	.	.	.	.	.	.	.	.	.	.	.	.	.	.
=33	=33	=33	=33	=33	=33	=33	=33	=33	=33	=33	=33	=33	=33	=33	=33	=33	=33	=33	=33	=33
!	!	!	!LO:TX:t=P:problem:mixed beam	!	!	!	!	!	!	!LO:LB:g=original	!	!	!	!	!	!	!	!	!	!
!	!	!	!	!	!	!	!	!	!	!	!	!	!	!	!	!LO:LB:g=original	!	!	!LO:LB:g=original	!
8r	.	.	16a/LL	.	16cc#\LL	.	2.ryy	2A\	-au-	2e\	-au-	.	2a\	-au-	.	2cc#\	-au-	.	8a/L	8ee\L
.	.	.	16g/	.	16b\	.	.	.	.	.	.	.	.	.	.	.	.	.	.	.
8A\	.	.	16a/	.	16cc#\	.	.	.	.	.	.	.	.	.	.	.	.	.	16a/L	16ee\L
.	.	.	16g/JJ	.	16b\JJ	.	.	.	.	.	.	.	.	.	.	.	.	.	16a/JJ	16ee\JJ
8A\L	.	.	8a\L	.	8cc#\L	.	.	.	.	.	.	.	.	.	.	.	.	.	8a/L	8ee\L
*	*	*	*	*	*	*	*	*	*	*	*	*	*	*	*	*	*	*	*	*
8A\	.	.	8aa\	.	8ccc#\	.	.	.	.	.	.	.	.	.	.	.	.	.	8a/	8ee\
8A\	.	.	8ee\	.	8aa\	.	.	4A\	-di	4e\	-di	.	4a\	-di	.	4cc#\	-di	.	8a/	8ee\
8A\J	.	.	8cc#\J	.	8ee\J	.	.	.	.	.	.	.	.	.	.	.	.	.	8a/J	8ee\J
*Xtremolo	*	*	*tremolo	*	*	*	*	*	*	*	*	*	*	*	*	*	*	*	*	*Xtremolo
=34	=34	=34	=34	=34	=34	=34	=34	=34	=34	=34	=34	=34	=34	=34	=34	=34	=34	=34	=34	=34
!	!	!	!	!	!	!	!	!	!	!	!	!	!LO:LB:g=original	!	!	!	!	!	!	!LO:LB:g=original
8A\L	.	.	8a/L	.	16cc#\LL	.	2.ryy	4A\	ex-	4e\	{ex-	.	4a\	{ex-	.	4cc#\	ex-	.	4a/	4ee\
.	.	.	.	.	16a\	.	.	.	.	.	.	.	.	.	.	.	.	.	.	.
8A\J	.	.	8a/	.	16cc#\	.	.	.	.	.	.	.	.	.	.	.	.	.	.	.
.	.	.	.	.	16ee\JJ	.	.	.	.	.	.	.	.	.	.	.	.	.	.	.
*tremolo	*	*	*	*	*	*	*	*	*	*	*	*	*	*	*	*	*	*	*	*
8F#\L	6	.	8a/	.	16aa\LL	.	.	4F#\	-au-	4f#\	-au-	.	4a\	-au-	.	4dd#X\	-au-	.	4r	4r
.	.	.	.	.	16gg\	.	.	.	.	.	.	.	.	.	.	.	.	.	.	.
8F#\	.	.	8a/	.	16ff#\	.	.	.	.	.	.	.	.	.	.	.	.	.	.	.
.	.	.	.	.	16ee\JJ	.	.	.	.	.	.	.	.	.	.	.	.	.	.	.
8F#\	.	.	8a/	.	16dd#X\LL	.	.	4F#\	-di	4f#\	-di}	.	4a\	-di}	.	4dd#\	-di	.	4r	4r
.	.	.	.	.	16ee\	.	.	.	.	.	.	.	.	.	.	.	.	.	.	.
8F#\J	.	.	8a/J	.	16ff#\	.	.	.	.	.	.	.	.	.	.	.	.	.	.	.
.	.	.	.	.	16dd#\JJ	.	.	.	.	.	.	.	.	.	.	.	.	.	.	.
=35	=35	=35	=35	=35	=35	=35	=35	=35	=35	=35	=35	=35	=35	=35	=35	=35	=35	=35	=35	=35
4E\	.	.	4g#X/	.	4ee\	.	2.ryy	4E\	nos	4B\	nos	.	4g#X\	nos	.	4ee\	nos	.	4ee\	4ee\
!	!	!	!	!	!LO:TX:t=P:problem:mixed beam	!	!	!	!	!	!	!	!	!	!	!	!	!	!	!
4r	.	.	8r	.	8e/L	.	.	4r	.	4r	.	.	4r	.	.	4r	.	.	4r	4r
.	.	.	8A/L	.	8cc#\	.	.	.	.	.	.	.	.	.	.	.	.	.	.	.
8r	.	.	8B/	.	8dd\	.	.	4r	.	8r	.	.	8r	.	.	8r	.	.	4r	4r
*clefC4	*	*	*	*	*	*	*	*	*	*	*	*	*	*	*	*	*	*	*	*
!LO:TX:a:t=io	!	!	!	!	!	!	!	!	!	!	!	!	!	!	!	!	!	!	!	!
8c#X\	.	.	8c#/J	.	8ee\J	.	.	.	.	8c#\	ex-	.	8a\	ex-	.	8ee\	ex-	.	.	.
=36	=36	=36	=36	=36	=36	=36	=36	=36	=36	=36	=36	=36	=36	=36	=36	=36	=36	=36	=36	=36
!LO:TX:a:t=io	!	!	!	!	!LO:TX:t=P:problem:mixed beam	!	!	!	!	!	!	!	!	!	!	!	!	!	!LO:N:vis=0	!LO:N:vis=0
4d\	.	.	8d/L	.	8ff#\L	.	2.ryy	2.r	.	4d\	-au-	.	4f#\	-au-	.	8ff#\L	-au-	.	1.r	1.r
.	.	.	8f#/	.	8a#X/J	.	.	.	.	.	.	.	.	.	.	8a#X\J	.	.	.	.
4d\	6	.	8f#/	.	8b\L	.	.	.	.	4d\	-di	.	4f#\	-di	.	4b\	-di	.	.	.
.	.	.	8f#/J	.	8dd\	.	.	.	.	.	.	.	.	.	.	.	.	.	.	.
8r	.	.	8r	.	8dd\	.	.	.	.	8r	.	.	8r	.	.	8r	.	.	.	.
!LO:TX:a:t=io	!	!	!	!	!	!	!	!	!	!	!	!	!	!	!	!	!	!	!	!
8d\	.	.	8f#/	.	8ff#\J	.	.	.	.	8d\	{ex-	.	8b\	{ex-	.	8ff#\	{ex-	.	.	.
=37	=37	=37	=37	=37	=37	=37	=37	=37	=37	=37	=37	=37	=37	=37	=37	=37	=37	=37	=37	=37
!LO:TX:a:t=io	!	!	!LO:LB:g=original	!	!LO:TX:t=P:problem:mixed beam	!	!	!LO:LB:g=original	!	!	!	!	!	!	!	!	!	!	!	!
4c#\	.	.	4e/	.	8ee\L	.	2.ryy	4r	.	4c#\	-au-	.	4e\	-au-	.	8ee\L	-au-	.	.	.
.	.	.	.	.	8g#X/J	.	.	.	.	.	.	.	.	.	.	8g#X\J	.	.	.	.
4c#\	6	.	4e/	.	8an\L	.	.	4r	.	4c#\	-di}	.	4e\	-di}	.	4an\	-di}	.	.	.
.	.	.	.	.	8cc#\	.	.	.	.	.	.	.	.	.	.	.	.	.	.	.
8r	.	.	8r	.	8cc#\	.	.	8r	.	8r	.	.	8r	.	.	8r	.	.	.	.
*clefF4	*	*	*	*	*	*	*	*	*	*	*	*	*	*	*	*	*	*	*	*
8C#/	6	.	8a/	.	8ee\J	.	.	8C#/	(Chri)-	8c#\	(Chris)-	.	8a\	ex-	.	8ee\	ex-	.	.	.
=38	=38	=38	=38	=38	=38	=38	=38	=38	=38	=38	=38	=38	=38	=38	=38	=38	=38	=38	=38	=38
!LO:LB:g=original	!	!	!	!	!	!	!	!	!	!	!	!	!	!	!	!	!	!	!	!
4D\	6 5	.	8f#/L	.	8dd\L	.	2.ryy	8D/	-ſte	8d\	-te	.	8f#\L	-au-	.	8dd\L	-au-	.	4dd\	4ff#\
.	.	.	16e/L	.	16cc#\L	.	.	8D/	ex-	8d\	ex-	.	16e\L	.	.	16cc#\L	.	.	.	.
.	.	.	16d/JJ	.	16b\JJ	.	.	.	.	.	.	.	16d\JJ	.	.	16b\JJ	.	.	.	.
4E\	4	.	4c#/	.	4a/	.	.	4E\	-au-	4e\	-au-	.	4c#/	.	.	4a\	.	.	4ee\	4ee\
4EE/	3	.	4B/	.	4g#X/	.	.	4E\	-di	4e\	-di	.	4B/	-di	.	4g#X\	-di	.	4ee\	4ee\
=39	=39	=39	=39	=39	=39	=39	=39	=39	=39	=39	=39	=39	=39	=39	=39	=39	=39	=39	=39	=39
!	!	!	!	!	!LO:LB:g=original	!	!	!	!	!	!	!	!	!	!	!	!	!	!	!
4AA/	.	.	4c#/	.	4a/	.	2.ryy	4AA/	nos	4e\	nos	.	4c#/	nos	.	4a\	nos	.	4a/	4ee\
!	!	!	!	!	!LO:TX:t=P:problem:mixed beam	!	!	!	!	!	!	!	!	!	!	!	!	!	!	!
4r	.	.	8A/L	.	8A/L	.	.	4r	.	4r	.	.	4r	.	.	4r	.	.	4r	4r
.	.	.	8A/	.	8cc#\	.	.	.	.	.	.	.	.	.	.	.	.	.	.	.
8r	.	.	8B/	.	8dd\	.	.	4r	.	8r	.	.	8r	.	.	8r	.	.	4r	4r
*clefC4	*	*	*	*	*	*	*	*	*	*	*	*	*	*	*	*	*	*	*	*
!LO:TX:a:t=io	!	!	!	!	!	!	!	!	!	!	!	!	!	!	!	!	!	!	!	!
8c#\	.	.	8c#/J	.	8ee\J	.	.	.	.	8c#\	ex-	.	8a\	{ex-	.	8ee\	ex-	.	.	.
=40	=40	=40	=40	=40	=40	=40	=40	=40	=40	=40	=40	=40	=40	=40	=40	=40	=40	=40	=40	=40
!LO:TX:a:t=io	!	!	!	!	!LO:TX:t=P:problem:mixed beam	!	!	!	!	!	!	!	!	!	!	!	!	!	!LO:N:vis=0	!LO:N:vis=0
4d\	.	.	8f#/L	.	8ff#\L	.	2.ryy	2.r	.	4d\	-au-	.	4f#\	-au-	.	8ff#\L	-au-	.	1.r	1.r
.	.	.	8a/J	.	8a#X/J	.	.	.	.	.	.	.	.	.	.	8a#X\J	.	.	.	.
!	!	!	!	!	!	!	!	!	!	!	!	!	!	!	!	!LO:LB:g=original	!	!	!	!
4d\	6	.	4f#/	.	8b\L	.	.	.	.	4d\	-di	.	4f#\	-di}	.	4b\	-di	.	.	.
.	.	.	.	.	8dd\	.	.	.	.	.	.	.	.	.	.	.	.	.	.	.
!	!	!	!	!	!	!	!	!	!	!LO:LB:g=original	!	!	!	!	!	!	!	!	!	!
8r	.	.	8r	.	8dd\	.	.	.	.	8r	.	.	8r	.	.	8r	.	.	.	.
!LO:TX:a:t=io	!	!	!	!	!	!	!	!	!	!	!	!	!	!	!	!	!	!	!	!
8d\	.	.	8f#/	.	8ff#\J	.	.	.	.	8d\	{ex-	.	8b\	ex-	.	8ff#\	{ex-	.	.	.
=41	=41	=41	=41	=41	=41	=41	=41	=41	=41	=41	=41	=41	=41	=41	=41	=41	=41	=41	=41	=41
!LO:TX:a:t=io	!	!	!	!	!LO:TX:t=P:problem:mixed beam	!	!	!	!	!	!	!	!LO:LB:g=original	!	!	!	!	!	!	!
4c#\	.	.	4e/	.	8ff#\L	.	2.ryy	4r	.	4c#\	-au-	.	4e\	-au-	.	8ee\L	-au-	.	.	.
.	.	.	.	.	8g#X/J	.	.	.	.	.	.	.	.	.	.	8g#X\J	.	.	.	.
4c#\	6	.	4e/	.	8a\L	.	.	4r	.	4c#\	-di}	.	4e\	-di	.	4an\	-di}	.	.	.
.	.	.	.	.	8cc#\	.	.	.	.	.	.	.	.	.	.	.	.	.	.	.
*clefF4	*	*	*	*	*	*	*	*	*	*	*	*	*	*	*	*	*	*	*	*
8r	.	.	8r	.	8cc#\	.	.	8r	.	8r	.	.	8r	.	.	8r	.	.	.	.
8C#/	6	.	8a/	.	8ee\J	.	.	8C#/	{Chri-	8c#\	(Chris)-	.	8a\	ex-	.	8ee\	ex-	.	.	.
=42	=42	=42	=42	=42	=42	=42	=42	=42	=42	=42	=42	=42	=42	=42	=42	=42	=42	=42	=42	=42
4D\	6 5	.	8f#/L	.	8dd\L	.	2.ryy	8D\	-ſte	8c#\	-te	.	8f#\L	-au-	.	8dd\L	-au-	.	4dd\	4ff#\
.	.	.	16e/L	.	16cc#\L	.	.	8D\	ex-	8d\	ex-	.	16e\L	.	.	16cc#\L	.	.	.	.
.	.	.	16d/JJ	.	16b\JJ	.	.	.	.	.	.	.	16d\JJ	.	.	16b\JJ	.	.	.	.
4E\	4	.	4c#/	.	4a/	.	.	4E\	-au-	4e\	-au-	.	4c#/	.	.	4a\	.	.	4ee\	4aa\
4EE/	3#	.	4B/	.	4g#X/	.	.	4E\	-di	4e\	-di	.	4B/	-di	.	4g#X\	-di-	.	4ee\	4gg#X\
=43	=43	=43	=43	=43	=43	=43	=43	=43	=43	=43	=43	=43	=43	=43	=43	=43	=43	=43	=43	=43
4AA/	.	.	4c#/	.	4a/	.	2.ryy	4AA/	nos}	4e\	nos	.	4c#/	nos	.	4a\	-nos	.	4a/	4aa\
8A`\L	.	.	4r	.	4r	.	.	4r	.	4r	.	.	4r	.	.	4r	.	.	4r	4r
8Gn`\	.	.	.	.	.	.	.	.	.	.	.	.	.	.	.	.	.	.	.	.
8F#`\	.	.	4r	.	4r	.	.	4r	.	4r	.	.	4r	.	.	4r	.	.	4r	4r
8E`\J	.	.	.	.	.	.	.	.	.	.	.	.	.	.	.	.	.	.	.	.
=44	=44	=44	=44	=44	=44	=44	=44	=44	=44	=44	=44	=44	=44	=44	=44	=44	=44	=44	=44	=44
!	!	!	!	!	!	!	!	!LO:LB:g=original	!	!	!	!	!	!	!	!	!	!	!	!
4D\	.	.	4.f#/	.	4.dd\	.	2.ryy	(4D\	Pa-	2.A\	Pa-	.	(2f#\	Pa-	.	(2dd\	Pa-	.	2f#/	2dd\
4F#\	6	.	.	.	.	.	.	4F#\	.	.	.	.	.	.	.	.	.	.	.	.
.	.	.	16e/LL	.	16cc#\LL	.	.	.	.	.	.	.	.	.	.	.	.	.	.	.
.	.	.	16f#/JJ	.	16dd\JJ	.	.	.	.	.	.	.	.	.	.	.	.	.	.	.
.	.	.	.	.	8qqff#/	.	.	.	.	.	.	.	.	.	.	.	.	.	.	.
4A\	.	.	8g/L	.	8ee\L	.	.	4A\)	.	.	.	.	4e\)	.	.	4cc#\)	.	.	4a/	4ee\
.	.	.	16f#/L	.	16dd\L	.	.	.	.	.	.	.	.	.	.	.	.	.	.	.
.	.	.	16e/JJ	.	16cc#\JJ	.	.	.	.	.	.	.	.	.	.	.	.	.	.	.
=45	=45	=45	=45	=45	=45	=45	=45	=45	=45	=45	=45	=45	=45	=45	=45	=45	=45	=45	=45	=45
4d\	.	.	8f#\L	.	8dd\L	.	2.ryy	4d\	-ter	4A\	-ter	.	4f#\	-ter	.	4dd\	-ter	.	4f#/	4dd\
.	.	.	8a\	.	8cc#\	.	.	.	.	.	.	.	.	.	.	.	.	.	.	.
4r	.	.	8b\	.	8dd\	.	.	4r	.	4r	.	.	4r	.	.	4r	.	.	4r	4r
.	.	.	8cc#\	.	8ee\	.	.	.	.	.	.	.	.	.	.	.	.	.	.	.
4r	.	.	8dd\	.	8ff#\	.	.	4r	.	4r	.	.	4r	.	.	4r	.	.	4r	4r
.	.	.	8ee\J	.	8gg\J	.	.	.	.	.	.	.	.	.	.	.	.	.	.	.
=46	=46	=46	=46	=46	=46	=46	=46	=46	=46	=46	=46	=46	=46	=46	=46	=46	=46	=46	=46	=46
!	!	!	!LO:LB:g=original	!	!	!	!	!	!	!	!	!	!	!	!	!	!	!	!LO:LB:g=original	!
4D\	5 3	.	4ff#\	.	4aa\	.	2.ryy	4D\	De	4d\	de	.	4g\	de	.	4a\	de	.	4d/	4dd\
4D\	8 6	.	4ff#\	.	4ddd\	.	.	4D\	Cae-	4d\	Cae-	.	4b\	Cae-	.	4dd\	cae-	.	8r	8r
.	.	.	.	.	.	.	.	.	.	.	.	.	.	.	.	.	.	.	16d/LL	16dd\LL
.	.	.	.	.	.	.	.	.	.	.	.	.	.	.	.	.	.	.	16d/JJ	16dd\JJ
4D\	6: 4:	.	4gg\	.	4bb\	.	.	4D\	-lis	4d\	-lis	.	4g\	-lis	.	4b\	-lis	.	8d/L	8dd\L
.	.	.	.	.	.	.	.	.	.	.	.	.	.	.	.	.	.	.	8d/J	8dd\J
=47	=47	=47	=47	=47	=47	=47	=47	=47	=47	=47	=47	=47	=47	=47	=47	=47	=47	=47	=47	=47
4D\	.	.	4gg\	.	4bb\	.	2.ryy	4D\	De-	4d\	De-	.	4g\	De-	.	4b\	De-	.	8d/L	8dd\L
.	.	.	.	.	.	.	.	.	.	.	.	.	.	.	.	.	.	.	16d/L	16dd\L
.	.	.	.	.	.	.	.	.	.	.	.	.	.	.	.	.	.	.	16d/JJ	16dd\JJ
4D\	5 3	.	4ff#\	.	4aa\	.	.	4D\	-us	4d\	-us	.	4f#\	-us	.	4a\	-us	.	4d/	4dd\
4r	.	.	4r	.	4r	.	.	4r	.	4r	.	.	4r	.	.	4r	.	.	4r	4r
=48	=48	=48	=48	=48	=48	=48	=48	=48	=48	=48	=48	=48	=48	=48	=48	=48	=48	=48	=48	=48
!	!	!	!	!	!	!	!	!	!	!LO:LB:g=original	!	!	!	!	!	!	!	!	!	!
!	!	!LO:DY:a	!	!	!	!	!	!LO:N:vis=0	!	!LO:TX:a:t=2	!	!	!	!	!LO:DY:a	!	!	!LO:DY:a	!	!LO:TX:a:t=2
!	!	!LO:DY:t=p.	!	!	!	!	!	!	!	!LO:N:vis=0	!	!	!	!	!	!	!	!	!LO:N:vis=0	!LO:N:vis=0
4AA/	.	p	8r	p	8r	.	2.ryy	1.r	.	1.r	.	.	2e\	mi-	p	2g\	mi-	p	1.r	1.r
!	!	!	!	!	!	!LO:DY:b	!	!	!	!	!	!	!	!	!	!	!	!	!	!
.	.	.	8ee`\L	.	8gg`\L	p	.	.	.	.	.	.	.	.	.	.	.	.	.	.
4r	.	.	8cc#`\	.	8ee`\	.	.	.	.	.	.	.	.	.	.	.	.	.	.	.
.	.	.	8a`\J	.	8cc#`\	.	.	.	.	.	.	.	.	.	.	.	.	.	.	.
4r	.	.	8e`/L	.	8g`\	.	.	.	.	.	.	.	4e\	-ſe-	.	4g\	-ſe-	.	.	.
.	.	.	8c#`/J	.	8e`\J	.	.	.	.	.	.	.	.	.	.	.	.	.	.	.
=49	=49	=49	=49	=49	=49	=49	=49	=49	=49	=49	=49	=49	=49	=49	=49	=49	=49	=49	=49	=49
!LO:LB:g=original	!	!	!	!	!LO:LB:g=original	!	!	!	!	!	!	!	!	!	!	!LO:LB:g=original	!	!	!	!
4D\	.	.	8r	.	8r	.	2.ryy	.	.	.	.	.	2d\	-re-	.	2f#/	-re-	.	.	.
.	.	.	8dd`/L	.	8ff#`\L	.	.	.	.	.	.	.	.	.	.	.	.	.	.	.
4r	.	.	8a`/	.	8dd`\	.	.	.	.	.	.	.	.	.	.	.	.	.	.	.
.	.	.	8f#`/	.	8a`\	.	.	.	.	.	.	.	.	.	.	.	.	.	.	.
4r	.	.	8d`/	.	8f#`\	.	.	.	.	.	.	.	4d\	-re	.	4f#/	-re	.	.	.
.	.	.	8A`/J	.	8d`\J	.	.	.	.	.	.	.	.	.	.	.	.	.	.	.
=50	=50	=50	=50	=50	=50	=50	=50	=50	=50	=50	=50	=50	=50	=50	=50	=50	=50	=50	=50	=50
!	!	!LO:DY:a	!	!	!LO:TX:t=P:problem:mixed beam	!LO:DY:b	!	!	!	!	!	!	!LO:LB:g=original	!	!	!	!	!LO:DY:b	!	!LO:LB:g=original
8r	.	f	8r	.	8A/L	.	2.ryy	8r	.	2A\	mi-	.	2e\	{mi-	.	2cc#\	mi-	f	4a/	4ee\
8AA/L	.	.	8ee\	f	8ccc#\	f	.	8AA/L	mi-	.	.	.	.	.	.	.	.	.	.	.
8C#/	.	.	8ee\L	.	8ccc#\	.	.	8C#/J	.	.	.	.	.	.	.	.	.	.	4r	4r
8E/J	.	.	8ee\	.	8ccc#\	.	.	8E\	-se-	.	.	.	.	.	.	.	.	.	.	.
!LO:TX:t=P:problem:mixed beam	!	!	!	!	!	!	!	!	!	!	!	!	!	!	!	!	!	!	!	!
8A\L	.	.	8ee\	.	8ccc#\	.	.	8A\	-re-	4A\	-ſe-	.	4e\	-ſe-	.	4cc#\	-ſe-	.	4a/	4ee\
8AA/J	.	.	8ee\J	.	8ccc#\J	.	.	8AA/	-re	.	.	.	.	.	.	.	.	.	.	.
=51	=51	=51	=51	=51	=51	=51	=51	=51	=51	=51	=51	=51	=51	=51	=51	=51	=51	=51	=51	=51
8r	.	.	8r	.	8r	.	2.ryy	8r	.	2A\	-re-	.	2f#\	-re-	.	2dd\	-re-	.	4dd\	4ff#\
!LO:TX:t=P:problem:mixed beam	!	!	!	!	!	!	!	!	!	!	!	!	!	!	!	!	!	!	!	!
8D\L	.	.	8ff#\L	.	8ddd\L	.	.	8D\L	{mi-	.	.	.	.	.	.	.	.	.	.	.
8F#\	.	.	8ff#\	.	8ddd\	.	.	8F#\J	.	.	.	.	.	.	.	.	.	.	4r	4r
8A\	.	.	8ff#\	.	8ddd\	.	.	8A\	-se-	.	.	.	.	.	.	.	.	.	.	.
8d\	.	.	8ff#\J	.	8ddd\	.	.	8d\	-re-	4A\	-re	.	4f#\	-re}	.	4dd\	-re	.	4dd\	4ff#\
8D/J	.	.	8dd\	.	8ff#\J	.	.	8D\	-re}	.	.	.	.	.	.	.	.	.	.	.
=52	=52	=52	=52	=52	=52	=52	=52	=52	=52	=52	=52	=52	=52	=52	=52	=52	=52	=52	=52	=52
!	!	!	!	!	!	!	!	!LO:LB:g=original	!	!	!	!	!	!	!	!	!	!	!	!
4A\	6 4	.	4dd\	.	4ff#\	.	2.ryy	4A\	no-	4A\	no-	.	4f#\	no-	.	4dd\	no-	.	4dd\	4ff#\
4AA/	5 3	.	4cc#\	.	4ee\	.	.	4AA/	-bis	4A\	-bis	.	4e\	-bis	.	4cc#\	-bis	.	4a/	4ee\
4r	.	.	4r	.	4r	.	.	4r	.	4r	.	.	4r	.	.	4r	.	.	4r	4r
=53	=53	=53	=53	=53	=53	=53	=53	=53	=53	=53	=53	=53	=53	=53	=53	=53	=53	=53	=53	=53
!	!	!LO:DY:a	!	!	!	!	!	!LO:TX:a:t=4	!	!	!	!	!LO:TX:a:t=4	!	!	!	!	!	!LO:N:vis=00	!LO:TX:a:t=5
!	!	!LO:DY:t=p.	!	!	!	!	!	!LO:N:vis=00	!	!LO:N:vis=00	!	!	!LO:N:vis=00	!	!	!LO:N:vis=00	!	!	!	!LO:N:vis=00
4D\	.	p	8r	.	8r	.	2.ryy	0.r	.	0.r	.	.	0.r	.	.	0.r	.	.	0.r	0.r
.	.	.	4f#/	.	4aa\	.	.	.	.	.	.	.	.	.	.	.	.	.	.	.
4r	.	.	.	.	.	.	.	.	.	.	.	.	.	.	.	.	.	.	.	.
.	.	.	4e/	.	4gg\	.	.	.	.	.	.	.	.	.	.	.	.	.	.	.
4r	.	.	.	.	.	.	.	.	.	.	.	.	.	.	.	.	.	.	.	.
.	.	.	8d/	.	8ff#\	.	.	.	.	.	.	.	.	.	.	.	.	.	.	.
=54	=54	=54	=54	=54	=54	=54	=54	=54	=54	=54	=54	=54	=54	=54	=54	=54	=54	=54	=54	=54
4D\	.	.	8r	.	8r	.	2.ryy	.	.	.	.	.	.	.	.	.	.	.	.	.
.	.	.	4a/	.	4ff#\	.	.	.	.	.	.	.	.	.	.	.	.	.	.	.
4r	.	.	.	.	.	.	.	.	.	.	.	.	.	.	.	.	.	.	.	.
.	.	.	4g/	.	4ee\	.	.	.	.	.	.	.	.	.	.	.	.	.	.	.
4r	.	.	.	.	.	.	.	.	.	.	.	.	.	.	.	.	.	.	.	.
.	.	.	8f#/	.	8dd\	.	.	.	.	.	.	.	.	.	.	.	.	.	.	.
=55	=55	=55	=55	=55	=55	=55	=55	=55	=55	=55	=55	=55	=55	=55	=55	=55	=55	=55	=55	=55
4GG/	.	.	8r	.	8r	.	2.ryy	.	.	.	.	.	.	.	.	.	.	.	.	.
.	.	.	4g/	.	4bb\	.	.	.	.	.	.	.	.	.	.	.	.	.	.	.
4r	.	.	.	.	.	.	.	.	.	.	.	.	.	.	.	.	.	.	.	.
.	.	.	4f#/	.	4aa\	.	.	.	.	.	.	.	.	.	.	.	.	.	.	.
4r	.	.	.	.	.	.	.	.	.	.	.	.	.	.	.	.	.	.	.	.
.	.	.	8e/	.	8gg\	.	.	.	.	.	.	.	.	.	.	.	.	.	.	.
=56	=56	=56	=56	=56	=56	=56	=56	=56	=56	=56	=56	=56	=56	=56	=56	=56	=56	=56	=56	=56
!	!	!	!LO:LB:g=original	!	!	!	!	!	!	!	!	!	!	!	!	!	!	!	!	!
4G\	.	.	8r	.	8r	.	2.ryy	.	.	.	.	.	.	.	.	.	.	.	.	.
.	.	.	4b/	.	4gg\	.	.	.	.	.	.	.	.	.	.	.	.	.	.	.
4r	.	.	.	.	.	.	.	.	.	.	.	.	.	.	.	.	.	.	.	.
.	.	.	4a/	.	4ff#\	.	.	.	.	.	.	.	.	.	.	.	.	.	.	.
4r	.	.	.	.	.	.	.	.	.	.	.	.	.	.	.	.	.	.	.	.
.	.	.	8g/	.	8ee\	.	.	.	.	.	.	.	.	.	.	.	.	.	.	.
=57	=57	=57	=57	=57	=57	=57	=57	=57	=57	=57	=57	=57	=57	=57	=57	=57	=57	=57	=57	=57
!	!	!LO:DY:a	!	!	!	!	!	!	!	!	!	!	!	!	!	!	!	!	!	!
!	!	!LO:DY:t=f.	!	!	!	!	!	!	!	!	!	!	!	!	!	!	!	!	!	!
4G\	6:	f	8b\L	.	8ee\L	.	2.ryy	4G\	Fi-	4B\	Fi-	.	4b\	Fi-	.	4ee\	Fi-	.	2.r	2.r
.	.	.	8b\	.	(32ee\LL	.	.	.	.	.	.	.	.	.	.	.	.	.	.	.
.	.	.	.	.	32dd#X\	.	.	.	.	.	.	.	.	.	.	.	.	.	.	.
.	.	.	.	.	32ee\)	.	.	.	.	.	.	.	.	.	.	.	.	.	.	.
.	.	.	.	.	32ff#\JJJ	.	.	.	.	.	.	.	.	.	.	.	.	.	.	.
4G\	.	.	8b\	.	8gg\L	.	.	4G\	-li	4B\	-li	.	4b\	-li	.	4ee\	-li	.	.	.
.	.	.	8b\	.	8ee\	.	.	.	.	.	.	.	.	.	.	.	.	.	.	.
4G\	5	.	8b\	.	8bb\	.	.	4G\	Re-	4e\	re-	.	4b\	re-	.	4dd\	Re-	.	.	.
.	.	.	8b\J	.	8dd#\J	.	.	.	.	.	.	.	.	.	.	.	.	.	.	.
=58	=58	=58	=58	=58	=58	=58	=58	=58	=58	=58	=58	=58	=58	=58	=58	=58	=58	=58	=58	=58
!	!	!	!	!	!	!	!	!	!	!	!	!	!LO:TX:a:t=SIC:t=demp-	!	!	!LO:TX:a:t=SIC:t=demp-	!	!	!	!
4G\	4 2	.	4e/	.	4cc#\	.	2.ryy	4G\	-demp-	4e\	-demp-	.	4a\	-dem-	.	4cc#\	-dem-	.	4a/	4ee\
!	!	!	!LO:TX:t=P:problem:mixed beam	!	!LO:LB:g=original	!	!	!	!	!	!	!	!	!	!	!	!	!	!	!
4F#\	6	.	8f#/L	.	8dd\L	.	.	4F#\	-tor	4f#\	-tor	.	4a\	-tor	.	4dd\	-tor	.	4dd\	4ee\
.	.	.	8dd\	.	8ff#\	.	.	.	.	.	.	.	.	.	.	.	.	.	.	.
4r	.	.	8ee\	.	8gg\	.	.	4r	.	4r	.	.	8r	.	.	8r	.	.	4r	4r
.	.	.	8ff#\J	.	8aa\J	.	.	.	.	.	.	.	8f#\	Re-	.	8a\	{Re-	.	.	.
=59	=59	=59	=59	=59	=59	=59	=59	=59	=59	=59	=59	=59	=59	=59	=59	=59	=59	=59	=59	=59
!	!	!	!	!	!	!	!	!	!	!	!	!	!LO:TX:a:t=SIC:t=demp-	!	!	!	!	!	!	!
4r	.	.	8gg\L	.	8bb\L	.	2.ryy	4r	.	4r	.	.	8g\	-dem-	.	8b\	-demp-	.	4r	4r
.	.	.	8ee\	.	8ccc#\	.	.	.	.	.	.	.	8e\	-tor	.	8cc#\	-tor}	.	.	.
4r	.	.	8ee\	.	8ddd\	.	.	4r	.	4r	.	.	8f#\L	mun-	.	8dd\L	mun-	.	8r	8r
.	.	.	8ff#\	.	8aa\	.	.	.	.	.	.	.	8a\J	.	.	8ff#\J	.	.	8ff#\L	8aa\L
8r	.	.	8ee\	.	8gg\	.	.	8G\	mun-	8B\	mun-	.	8g\L	-di	.	8ee\L	-di	.	8ee\	8gg\
8G#X\	7 5	.	8dd\J	.	8ff#\J	.	.	8G#X\	-di	8B\	-di	.	8f#\J	.	.	8dd\J	.	.	8dd\J	8ff#\J
=60	=60	=60	=60	=60	=60	=60	=60	=60	=60	=60	=60	=60	=60	=60	=60	=60	=60	=60	=60	=60
4A\	6 4	.	4dd\	.	4ff#\	.	2.ryy	4A\	De-	4A\	De-	.	4f#\	De-	.	4dd\	De-	.	4dd\	4ff#\
4AA/	5 3	.	4dd\	.	4ee\	.	.	4AA/	-us	4A\	-us	.	4e\	-us	.	4cc#\	-us	.	4a/	4ee\
4r	.	.	4r	.	4r	.	.	4r	.	4r	.	.	4r	.	.	4r	.	.	4r	4r
=61	=61	=61	=61	=61	=61	=61	=61	=61	=61	=61	=61	=61	=61	=61	=61	=61	=61	=61	=61	=61
*	*	*	*	*	*tremolo	*	*	*	*	*	*	*	*	*	*	*	*	*	*	*
!LO:LB:g=original	!	!	!	!LO:DY:a	!	!LO:DY:a	!	!	!	!LO:LB:g=original	!	!	!	!	!	!LO:LB:g=original	!	!LO:DY:a	!LO:LB:g=original	!LO:N:vis=00
!	!	!	!	!	!	!LO:DY:t=p.	!	!LO:N:vis=00	!	!LO:N:vis=00	!	!	!	!	!	!	!	!	!LO:N:vis=00	!
2.r	.	.	8d/L	p	8d/L	p	2.ryy	0.r	.	0.r	.	.	2f#\	Spi-	.	2a\	Spi-	p	0.r	0.r
.	.	.	8d/	.	8d/	.	.	.	.	.	.	.	.	.	.	.	.	.	.	.
.	.	.	8d/	.	8d/	.	.	.	.	.	.	.	.	.	.	.	.	.	.	.
.	.	.	8d/	.	8d/	.	.	.	.	.	.	.	.	.	.	.	.	.	.	.
.	.	.	8d/	.	8d/	.	.	.	.	.	.	.	8g\L	-ri-	.	8b\L	-ri-	.	.	.
.	.	.	8d/J	.	8d/J	.	.	.	.	.	.	.	8f#\J	.	.	8a\J	.	.	.	.
=62	=62	=62	=62	=62	=62	=62	=62	=62	=62	=62	=62	=62	=62	=62	=62	=62	=62	=62	=62	=62
!	!	!	!	!LO:DY:a	!	!	!	!	!	!	!	!	!LO:LB:g=original	!	!	!	!	!	!	!
8r	.	.	8r	f	8r	.	2.ryy	.	.	.	.	.	2e\	-tus	.	2g/	-tus	.	.	.
!	!	!	!	!	!	!LO:DY:t=f.	!	!	!	!	!	!	!	!	!	!	!	!	!	!
!	!	!	!	!	!	!LO:DY:a	!	!	!	!	!	!	!	!	!	!	!	!	!	!
8AA`/L	.	.	8A/L	.	8A/L	f	.	.	.	.	.	.	.	.	.	.	.	.	.	.
8C#`/	.	.	8c#/	.	8c#/	.	.	.	.	.	.	.	.	.	.	.	.	.	.	.
8E`/	.	.	8e/	.	8e/	.	.	.	.	.	.	.	.	.	.	.	.	.	.	.
8C#`/	.	.	8c#/	.	8c#/	.	.	.	.	.	.	.	4r	.	.	4r	.	.	.	.
8BB`/J	.	.	8B/J	.	8B/J	.	.	.	.	.	.	.	.	.	.	.	.	.	.	.
=63	=63	=63	=63	=63	=63	=63	=63	=63	=63	=63	=63	=63	=63	=63	=63	=63	=63	=63	=63	=63
!	!	!	!	!	!	!LO:DY:t=p.	!	!	!	!	!	!	!	!	!	!	!	!	!	!
!	!	!	!	!LO:DY:a	!	!LO:DY:a	!	!	!	!	!	!	!	!	!	!	!	!	!	!
4AA`/	.	.	8A/L	p	8A/L	p	2.ryy	.	.	.	.	.	8e\L	Sanc-	.	8g\L	Sanc-	.	.	.
.	.	.	8A/	.	8A/	.	.	.	.	.	.	.	8d\	.	.	8f#\	.	.	.	.
4r	.	.	8A/	.	8A/	.	.	.	.	.	.	.	8e\	.	.	8g\	.	.	.	.
.	.	.	8A/	.	8A/	.	.	.	.	.	.	.	8g\J	.	.	8b\J	.	.	.	.
4r	.	.	8A/	.	8A/	.	.	.	.	.	.	.	8f#\L	-te	.	8a\L	-te	.	.	.
.	.	.	8A/J	.	8A/J	.	.	.	.	.	.	.	8e\J	.	.	8g\J	.	.	.	.
=64	=64	=64	=64	=64	=64	=64	=64	=64	=64	=64	=64	=64	=64	=64	=64	=64	=64	=64	=64	=64
!	!	!	!	!LO:DY:a	!	!	!	!	!	!	!	!	!	!	!	!	!	!	!	!
8r	.	.	8r	f	8r	.	2.ryy	.	.	.	.	.	4e\	De-	.	4g/	De-	.	.	.
!	!	!	!	!	!	!LO:DY:t=f.	!	!	!	!	!	!	!	!	!	!	!	!	!	!
!	!	!	!	!	!	!LO:DY:a	!	!	!	!	!	!	!	!	!	!	!	!	!	!
8d`\L	.	.	8dd\L	.	8dd\L	f	.	.	.	.	.	.	.	.	.	.	.	.	.	.
8A`\	.	.	8a\	.	8a\	.	.	.	.	.	.	.	4d\	-us	.	4f#/	-us	.	.	.
8d`\	.	.	8dd\	.	8dd\	.	.	.	.	.	.	.	.	.	.	.	.	.	.	.
8F#`\	.	.	8f#\	.	8f#\	.	.	.	.	.	.	.	4r	.	.	4r	.	.	.	.
8A`\J	.	.	8a\J	.	8a\J	.	.	.	.	.	.	.	.	.	.	.	.	.	.	.
=65	=65	=65	=65	=65	=65	=65	=65	=65	=65	=65	=65	=65	=65	=65	=65	=65	=65	=65	=65	=65
!	!	!	!	!	!	!	!	!	!	!	!	!	!LO:N:vis=00	!	!	!LO:N:vis=00	!	!	!LO:N:vis=00	!LO:N:vis=00
4D`\	.	.	8d/L	.	8d/L	.	2.ryy	2F#\	mi-	2A\	Mi-	.	0.r	.	.	0.r	.	.	0.r	0.r
.	.	.	8d/	.	8d/	.	.	.	.	.	.	.	.	.	.	.	.	.	.	.
4r	.	.	8d/	.	8d/	.	.	.	.	.	.	.	.	.	.	.	.	.	.	.
.	.	.	8d/	.	8d/	.	.	.	.	.	.	.	.	.	.	.	.	.	.	.
4r	.	.	8d/	.	8d/	.	.	8G\L	-se-	8B\L	-ſe-	.	.	.	.	.	.	.	.	.
.	.	.	8d/J	.	8d/J	.	.	8F#\J	.	8A\J	.	.	.	.	.	.	.	.	.	.
=66	=66	=66	=66	=66	=66	=66	=66	=66	=66	=66	=66	=66	=66	=66	=66	=66	=66	=66	=66	=66
8r	.	.	8r	.	8r	.	2.ryy	4E\	-re-	4G/	-re-	.	.	.	.	.	.	.	.	.
8AA`/L	.	.	8A/L	.	8A/L	.	.	.	.	.	.	.	.	.	.	.	.	.	.	.
8C#`/	.	.	8c#/	.	8c#/	.	.	4E\	-re	4G/	-re	.	.	.	.	.	.	.	.	.
8E`/	.	.	8e/	.	8e/	.	.	.	.	.	.	.	.	.	.	.	.	.	.	.
8C#`/	.	.	8c#/	.	8c#/	.	.	4r	.	4r	.	.	.	.	.	.	.	.	.	.
!	!	!	!LO:TX:a:t=SIC:s=8B	!	!	!	!	!	!	!	!	!	!	!	!	!	!	!	!	!
8BB`/J	.	.	8A/J	.	8B/J	.	.	.	.	.	.	.	.	.	.	.	.	.	.	.
=67	=67	=67	=67	=67	=67	=67	=67	=67	=67	=67	=67	=67	=67	=67	=67	=67	=67	=67	=67	=67
!	!	!	!LO:LB:g=original	!	!	!	!	!LO:LB:g=original	!	!	!	!	!	!	!	!	!	!	!	!
4AA`/	.	.	8A/L	.	8A/L	.	2.ryy	8E\	{mi-	8G/	mi-	.	.	.	.	.	.	.	.	.
.	.	.	8A/	.	8A/	.	.	8D\	-se-	8F#/	-ſe-	.	.	.	.	.	.	.	.	.
4r	.	.	8A/	.	8A/	.	.	8E\L	-re-	8G/L	-re-	.	.	.	.	.	.	.	.	.
*	*	*	*	*	*	*	*	*	*	*	*	*	*	*	*	*	*	*	*	*
.	.	.	8A/	.	8A/	.	.	8G\J	.	8B/J	.	.	.	.	.	.	.	.	.	.
4r	.	.	8A/	.	8A/	.	.	8F#\L	-re}	8A/L	-re	.	.	.	.	.	.	.	.	.
.	.	.	8A/J	.	8A/J	.	.	8E\J	.	8G/J	.	.	.	.	.	.	.	.	.	.
*	*	*	*Xtremolo	*	*Xtremolo	*	*	*	*	*	*	*	*	*	*	*	*	*	*	*
=68	=68	=68	=68	=68	=68	=68	=68	=68	=68	=68	=68	=68	=68	=68	=68	=68	=68	=68	=68	=68
8r	.	.	4d/	.	4d/	.	2.ryy	4E\	no-	4F#/	no-	.	.	.	.	.	.	.	.	.
8d`\L	.	.	.	.	.	.	.	.	.	.	.	.	.	.	.	.	.	.	.	.
8A`\	.	.	4r	.	4r	.	.	4D\	-bis	4F#/	-bis	.	.	.	.	.	.	.	.	.
8d`\	.	.	.	.	.	.	.	.	.	.	.	.	.	.	.	.	.	.	.	.
8F#`\	.	.	4r	.	4r	.	.	4r	.	4r	.	.	.	.	.	.	.	.	.	.
8A`\J	.	.	.	.	.	.	.	.	.	.	.	.	.	.	.	.	.	.	.	.
=69	=69	=69	=69	=69	=69	=69	=69	=69	=69	=69	=69	=69	=69	=69	=69	=69	=69	=69	=69	=69
!	!	!	!	!	!LO:LB:g=original	!	!	!	!	!	!	!	!	!	!	!LO:TX:a:t=T.	!	!	!	!
8D\L	.	.	16a/LL	.	16ccn\LL	.	2.ryy	2F#\	Sanc-	2d\	Sanc-	.	2a\	Sanc-	.	2ccn\	Sanc-	.	4d/	4dd\
.	.	.	16g/	.	16b\	.	.	.	.	.	.	.	.	.	.	.	.	.	.	.
8F#\J	.	.	16f#/	.	16a\	.	.	.	.	.	.	.	.	.	.	.	.	.	.	.
.	.	.	16g/JJ	.	16b\JJ	.	.	.	.	.	.	.	.	.	.	.	.	.	.	.
!LO:TX:a:t=problem:ósemki pod jedną belka z tremolo	!	!	!LO:TX:t=P:problem:mixed beam	!	!	!	!	!	!	!	!	!	!	!	!	!	!	!	!	!
8F#\L	6: 5:	.	8a/L	.	8cc\L	.	.	.	.	.	.	.	.	.	.	.	.	.	4r	4r
8F#\	.	.	8ff#\	.	8aa\	.	.	.	.	.	.	.	.	.	.	.	.	.	.	.
8F#\	.	.	8ccn\	.	8ff#\	.	.	4F#\	-ta	4d\	-te	.	4a\	-ta	.	4cc\	-ta	.	4r	4r
8F#\J	.	.	8a\J	.	8cc\J	.	.	.	.	.	.	.	.	.	.	.	.	.	.	.
=70	=70	=70	=70	=70	=70	=70	=70	=70	=70	=70	=70	=70	=70	=70	=70	=70	=70	=70	=70	=70
8r	.	.	16g/LL	.	16b\LL	.	2.ryy	8.G\	Tri-	8.d\	Tri-	.	8.g\	Tri-	.	8.b\	Tri-	.	8d/L	8dd\L
.	.	.	16f#/	.	16a\	.	.	.	.	.	.	.	.	.	.	.	.	.	.	.
8G\	.	.	16g/	.	16b\	.	.	.	.	.	.	.	.	.	.	.	.	.	16d/L	16dd\L
.	.	.	16f#/JJ	.	16a\JJ	.	.	16G\	-ni-	16d\	-ni-	.	16g\	-ni-	.	16b\	-ni-	.	16d/JJ	16dd\JJ
!	!	!	!LO:TX:t=P:problem:mixed beam	!	!	!	!	!	!	!	!	!	!	!	!	!	!	!	!	!
8G\L	.	.	8g\L	.	8b\L	.	.	4G\	-tas	4d\	-tas	.	4g\	-tas	.	4b\	-tas	.	8d/L	8dd\L
8G\	.	.	8ee\	.	8gg\	.	.	.	.	.	.	.	.	.	.	.	.	.	8d/J	8dd\J
8G\	.	.	8b\	.	8dd\	.	.	4r	.	4r	.	.	4r	.	.	4r	.	.	4d/	4dd\
8G\J	.	.	8g\J	.	8b\J	.	.	.	.	.	.	.	.	.	.	.	.	.	.	.
=71	=71	=71	=71	=71	=71	=71	=71	=71	=71	=71	=71	=71	=71	=71	=71	=71	=71	=71	=71	=71
!	!	!	!	!	!	!	!	!	!	!LO:LB:g=original	!	!	!	!	!	!	!	!	!	!
8r	.	.	16b/LL	.	16dd\LL	.	2.ryy	2G#X\	u-	2e\	u-	.	2b\	u-	.	2dd\	u-	.	4ee\	4ee\
.	.	.	16a/	.	16cc#X\	.	.	.	.	.	.	.	.	.	.	.	.	.	.	.
8G#X\	.	.	16g#X/	.	16b\	.	.	.	.	.	.	.	.	.	.	.	.	.	.	.
.	.	.	16a/JJ	.	16cc#\JJ	.	.	.	.	.	.	.	.	.	.	.	.	.	.	.
8G#\L	6: 5:	.	8b\L	.	8dd\L	.	.	.	.	.	.	.	.	.	.	.	.	.	4r	4r
8G#\	.	.	8gg#X\	.	8bb\	.	.	.	.	.	.	.	.	.	.	.	.	.	.	.
8G#\	.	.	8dd\	.	8dd\ 8gg#X	.	.	4G#\	-nus	4e\	-nus	.	4b\	-nus	.	4dd\	-nus	.	4r	4r
8G#\J	.	.	8b\J	.	8dd\J	.	.	.	.	.	.	.	.	.	.	.	.	.	.	.
=72	=72	=72	=72	=72	=72	=72	=72	=72	=72	=72	=72	=72	=72	=72	=72	=72	=72	=72	=72	=72
!	!	!	!	!	!	!	!	!	!	!	!	!	!	!	!	!	!	!	!	!LO:LB:g=original
8r	.	.	16a/LL	.	16cc#\LL	.	2.ryy	4A\	De-	4e\	De-	.	4a\	De-	.	4cc#X\	De-	.	8a/L	8ee\L
.	.	.	16g#X/	.	16b\	.	.	.	.	.	.	.	.	.	.	.	.	.	.	.
8A\	.	.	16a/	.	16cc#\	.	.	.	.	.	.	.	.	.	.	.	.	.	16a/L	16ee\L
.	.	.	16g#/JJ	.	16b\JJ	.	.	.	.	.	.	.	.	.	.	.	.	.	16a/JJ	16ee\JJ
!	!	!	!LO:TX:t=P:problem:mixed beam	!	!	!	!	!	!	!	!	!	!	!	!	!	!	!	!	!
8A\L	.	.	8a/L	.	8cc#\L	.	.	4A\	-us	4e\	-us	.	4a\	-us	.	4cc#\	-us	.	8a/L	8ee\L
8A\	.	.	8ee\	.	8aa\	.	.	.	.	.	.	.	.	.	.	.	.	.	8a/J	8ee\J
8A\	.	.	8cc#\	.	8ee\	.	.	4r	.	4r	.	.	4r	.	.	4r	.	.	4a/	4ee\
8A\J	.	.	8a\J	.	8cc#\J	.	.	.	.	.	.	.	.	.	.	.	.	.	.	.
=73	=73	=73	=73	=73	=73	=73	=73	=73	=73	=73	=73	=73	=73	=73	=73	=73	=73	=73	=73	=73
!LO:LB:g=original	!	!	!	!	!	!	!	!	!	!	!	!	!LO:LB:g=original	!	!	!LO:LB:g=original	!	!	!	!
8r	.	.	16A/LL	.	8a\L	.	2.ryy	8r	.	2A\	Mi-	.	2g\	mi-	.	2ee\	mi-	.	4a/	4ee\
.	.	.	16gn/	.	.	.	.	.	.	.	.	.	.	.	.	.	.	.	.	.
!LO:TX:t=P:problem:mixed beam	!	!	!	!	!	!	!	!	!	!	!	!	!	!	!	!	!	!	!	!
8AA\L	7_	.	16a/	.	8ee\	.	.	8AA/L	mi-	.	.	.	.	.	.	.	.	.	.	.
.	.	.	16g/JJ	.	.	.	.	.	.	.	.	.	.	.	.	.	.	.	.	.
8C#\	.	.	16A/LL	.	8ee\	.	.	8C#/J	.	.	.	.	.	.	.	.	.	.	4r	4r
.	.	.	16g/	.	.	.	.	.	.	.	.	.	.	.	.	.	.	.	.	.
8E\	.	.	16a/	.	8ee\	.	.	8E\	-se-	.	.	.	.	.	.	.	.	.	.	.
.	.	.	16g/JJ	.	.	.	.	.	.	.	.	.	.	.	.	.	.	.	.	.
!	!	!	!	!	!	!	!	!LO:LB:g=original	!	!	!	!	!	!	!	!	!	!	!	!
8A\	x	.	16A/LL	.	8ee\	.	.	8A\	-re-	4A\	-ſe-	.	4g\	-ſe-	.	4ee\	-ſe-	.	4a/	4ee\
.	.	.	16g/	.	.	.	.	.	.	.	.	.	.	.	.	.	.	.	.	.
8AA/J	.	.	16a/	.	8ee\J	.	.	8AA/	-re	.	.	.	.	.	.	.	.	.	.	.
.	.	.	16g/JJ	.	.	.	.	.	.	.	.	.	.	.	.	.	.	.	.	.
=74	=74	=74	=74	=74	=74	=74	=74	=74	=74	=74	=74	=74	=74	=74	=74	=74	=74	=74	=74	=74
!	!	!	!LO:LB:g=original	!	!	!	!	!	!	!	!	!	!	!	!	!	!	!	!	!
8r	.	.	16A/LL	.	8r	.	2.ryy	8r	.	2A\	-re-	.	2f#\	-re-	.	2dd\	-re-	.	4dd\	4ff#\
.	.	.	16f#/	.	.	.	.	.	.	.	.	.	.	.	.	.	.	.	.	.
!LO:TX:t=P:problem:mixed beam	!	!	!	!	!	!	!	!	!	!	!	!	!	!	!	!	!	!	!	!
8D\L	.	.	16a/	.	8dd\	.	.	8D\L	{mi-	.	.	.	.	.	.	.	.	.	.	.
.	.	.	16f#/JJ	.	.	.	.	.	.	.	.	.	.	.	.	.	.	.	.	.
*	*	*	*rep	*	*tremolo	*	*	*	*	*	*	*	*	*	*	*	*	*	*	*
8F#\	.	.	16A/LL	.	8dd\L	.	.	8F#\J	.	.	.	.	.	.	.	.	.	.	4r	4r
.	.	.	16f#/	.	.	.	.	.	.	.	.	.	.	.	.	.	.	.	.	.
8A\	.	.	16a/	.	8dd\	.	.	8A\	-se-	.	.	.	.	.	.	.	.	.	.	.
.	.	.	16f#/JJ	.	.	.	.	.	.	.	.	.	.	.	.	.	.	.	.	.
*	*	*	*Xrep	*	*	*	*	*	*	*	*	*	*	*	*	*	*	*	*	*
*	*	*	*rep	*	*	*	*	*	*	*	*	*	*	*	*	*	*	*	*	*
8d\	.	.	16A/LL	.	8dd\	.	.	8d\	-re-	4A\	-re	.	4f#\	-re	.	4dd\	-re	.	4dd\	4ff#\
.	.	.	16f#/	.	.	.	.	.	.	.	.	.	.	.	.	.	.	.	.	.
8D/J	.	.	16a/	.	8dd\J	.	.	8D\	-re}	.	.	.	.	.	.	.	.	.	.	.
.	.	.	16f#/JJ	.	.	.	.	.	.	.	.	.	.	.	.	.	.	.	.	.
*	*	*	*Xrep	*	*	*	*	*	*	*	*	*	*	*	*	*	*	*	*	*
=75	=75	=75	=75	=75	=75	=75	=75	=75	=75	=75	=75	=75	=75	=75	=75	=75	=75	=75	=75	=75
8r	.	.	16A/LL	.	8r	.	2.ryy	8r	.	2A\	{mi-	.	2g\	{mi-	.	2ee\	{mi-	.	4ee\	2.aa\
.	.	.	16g/	.	.	.	.	.	.	.	.	.	.	.	.	.	.	.	.	.
8AA/L	7_	.	16a/	.	8ee\	.	.	8AA/L	{mi-	.	.	.	.	.	.	.	.	.	.	.
.	.	.	16g/JJ	.	.	.	.	.	.	.	.	.	.	.	.	.	.	.	.	.
*	*	*	*rep	*	*	*	*	*	*	*	*	*	*	*	*	*	*	*	*	*
8C#/	.	.	16A/LL	.	8ee\L	.	.	8C#/J	.	.	.	.	.	.	.	.	.	.	4r	.
.	.	.	16g/	.	.	.	.	.	.	.	.	.	.	.	.	.	.	.	.	.
8E/	.	.	16a/	.	8ee\	.	.	8E\	-se-	.	.	.	.	.	.	.	.	.	.	.
.	.	.	16g/JJ	.	.	.	.	.	.	.	.	.	.	.	.	.	.	.	.	.
*	*	*	*Xrep	*	*	*	*	*	*	*	*	*	*	*	*	*	*	*	*	*
*	*	*	*rep	*	*	*	*	*	*	*	*	*	*	*	*	*	*	*	*	*
8A/	x	.	16A/LL	.	8ee\	.	.	8A\	-re-	4A\	-ſe-	.	4g\	-ſe-	.	4ee\	-ſe-	.	4ee\	.
.	.	.	16g/	.	.	.	.	.	.	.	.	.	.	.	.	.	.	.	.	.
8AA/J	.	.	16a/	.	8ee\J	.	.	8AA/	-re}	.	.	.	.	.	.	.	.	.	.	.
.	.	.	16g/JJ	.	.	.	.	.	.	.	.	.	.	.	.	.	.	.	.	.
*	*	*	*Xrep	*	*	*	*	*	*	*	*	*	*	*	*	*	*	*	*	*
=76	=76	=76	=76	=76	=76	=76	=76	=76	=76	=76	=76	=76	=76	=76	=76	=76	=76	=76	=76	=76
8r	.	.	16A/LL	.	8r	.	2.ryy	8r	.	2A\	-re-	.	2f#\	-re-	.	2dd\	-re-	.	4ff#\	2.aa\
.	.	.	16f#/	.	.	.	.	.	.	.	.	.	.	.	.	.	.	.	.	.
!LO:TX:t=P:problem:mixed beam	!	!	!	!	!	!	!	!	!	!	!	!	!	!	!	!	!	!	!	!
8D\L	.	.	16a/	.	8dd\	.	.	8D\L	{mi-	.	.	.	.	.	.	.	.	.	.	.
.	.	.	16f#/JJ	.	.	.	.	.	.	.	.	.	.	.	.	.	.	.	.	.
*	*	*	*rep	*	*	*	*	*	*	*	*	*	*	*	*	*	*	*	*	*
8F#\	.	.	16A/LL	.	8dd\L	.	.	8F#\J	.	.	.	.	.	.	.	.	.	.	4r	.
.	.	.	16f#/	.	.	.	.	.	.	.	.	.	.	.	.	.	.	.	.	.
8A\	.	.	16a/	.	8dd\	.	.	8A\	-se-	.	.	.	.	.	.	.	.	.	.	.
.	.	.	16f#/JJ	.	.	.	.	.	.	.	.	.	.	.	.	.	.	.	.	.
*	*	*	*Xrep	*	*	*	*	*	*	*	*	*	*	*	*	*	*	*	*	*
*	*	*	*rep	*	*	*	*	*	*	*	*	*	*	*	*	*	*	*	*	*
8d\	.	.	16A/LL	.	8dd\	.	.	8d\	-re-	4A\	-re}	.	4f#\	-re}	.	4dd\	-re}	.	4ff#\	.
.	.	.	16f#/	.	.	.	.	.	.	.	.	.	.	.	.	.	.	.	.	.
8D/J	.	.	16a/	.	8dd\J	.	.	8D\	-re}	.	.	.	.	.	.	.	.	.	.	.
.	.	.	16f#/JJ	.	.	.	.	.	.	.	.	.	.	.	.	.	.	.	.	.
*Xtremolo	*	*	*Xrep	*	*	*	*	*	*	*	*	*	*	*	*	*	*	*	*	*
=77	=77	=77	=77	=77	=77	=77	=77	=77	=77	=77	=77	=77	=77	=77	=77	=77	=77	=77	=77	=77
!	!	!	!	!	!	!	!	!	!	!	!	!	!	!	!	!	!	!	!LO:LB:g=original	!
8D/L	.	.	16d/LL	.	8dd\L	.	2.ryy	(4D/	no-	4A\	no-	.	4f#\	no-	.	2.dd\	no-	.	4dd\	4ff#\
.	.	.	16f#/	.	.	.	.	.	.	.	.	.	.	.	.	.	.	.	.	.
8D/J	.	.	16a/	.	8dd\	.	.	.	.	.	.	.	.	.	.	.	.	.	.	.
.	.	.	16f#/JJ	.	.	.	.	.	.	.	.	.	.	.	.	.	.	.	.	.
*tremolo	*	*	*	*	*	*	*	*	*	*	*	*	*	*	*	*	*	*	*	*
8BB/L	6|	.	16B/LL	.	8dd\	.	.	2BB/)	.	2B\	.	.	2g#X\	.	.	.	.	.	4r	4r
.	.	.	16d/	.	.	.	.	.	.	.	.	.	.	.	.	.	.	.	.	.
*	*	*	*	*	*	*	*	*	*	*	*	*	*	*	*	*	*	*	*	*
*	*	*	*	*	*	*	*	*	*	*	*	*	*	*	*	*	*	*	*	*
8BB/	.	.	16g#X/	.	8dd\	.	.	.	.	.	.	.	.	.	.	.	.	.	.	.
.	.	.	16d/JJ	.	.	.	.	.	.	.	.	.	.	.	.	.	.	.	.	.
8BB/	.	.	16B/LL	.	8dd\	.	.	.	.	.	.	.	.	.	.	.	.	.	4dd\	4ff#\
.	.	.	16e/	.	.	.	.	.	.	.	.	.	.	.	.	.	.	.	.	.
8BB/J	.	.	16g#/	.	8dd\J	.	.	.	.	.	.	.	.	.	.	.	.	.	.	.
.	.	.	16e/JJ	.	.	.	.	.	.	.	.	.	.	.	.	.	.	.	.	.
*	*	*	*	*	*Xtremolo	*	*	*	*	*	*	*	*	*	*	*	*	*	*	*
=78	=78	=78	=78	=78	=78	=78	=78	=78	=78	=78	=78	=78	=78	=78	=78	=78	=78	=78	=78	=78
4AA/	.	.	4a/	.	4cc#\	.	2.ryy	4AA/	-bis	4A\	-bis	.	4e\	-bis	.	4dd\	-bis	.	4dd\	4ff#\
4r	.	.	8r	.	8r	.	.	4r	.	4r	.	.	4r	.	.	4r	.	.	4a/	4ee\
.	.	.	8d/L	.	8f#/L	.	.	.	.	.	.	.	.	.	.	.	.	.	.	.
8r	.	.	8e/	.	8g/	.	.	8r	.	8r	.	.	8r	.	.	8r	.	.	4r	4r
!LO:TX:a:t=io	!	!	!	!	!	!	!	!	!	!	!	!	!	!	!	!	!	!	!	!
8F#\	.	.	8f#/J	.	8a/J	.	.	16F#\	mi-	16d\	Mi-	.	16a\	mi-	.	16dd\	mi-	.	.	.
.	.	.	.	.	.	.	.	16F#\	-se-	16d\	-ſe-	.	16a\	-ſe-	.	16dd\	-ſe-	.	.	.
=79	=79	=79	=79	=79	=79	=79	=79	=79	=79	=79	=79	=79	=79	=79	=79	=79	=79	=79	=79	=79
!	!	!	!	!	!LO:LB:g=original	!	!	!LO:LB:g=original	!	!	!	!	!	!	!	!	!	!	!LO:TX:a:t=2	!LO:N:vis=0
!	!	!	!	!	!	!	!	!	!	!	!	!	!	!	!	!	!	!	!LO:N:vis=0	!
4G\	10	.	8g/L	.	8b/L	.	2.ryy	4G\	-re-	4B\	-re-	.	8b\L	-re-	.	4dd\	-re-	.	1.r	1.r
.	.	.	8B/J	.	8d#X/J	.	.	.	.	.	.	.	8d#X\J	.	.	.	.	.	.	.
4G\	6	.	4B/	.	8e/L	.	.	4G\	-re	4B\	-re	.	4e\	-re	.	4ee\	-re	.	.	.
.	.	.	.	.	8g/	.	.	.	.	.	.	.	.	.	.	.	.	.	.	.
!	!	!	!	!	!	!	!	!	!	!LO:LB:g=original	!	!	!	!	!	!	!	!	!	!
8r	.	.	8r	.	8g/	.	.	8r	.	8r	.	.	8r	.	.	8r	.	.	.	.
8G\	10	.	8e/	.	8b/J	.	.	16G\	{mi-	16e\	{mi-	.	16b\	{mi-	.	16ee\	{mi-	.	.	.
.	.	.	.	.	.	.	.	16G\	-se-	16e\	-ſe-	.	16b\	-ſe-	.	16ee\	-ſe-	.	.	.
=80	=80	=80	=80	=80	=80	=80	=80	=80	=80	=80	=80	=80	=80	=80	=80	=80	=80	=80	=80	=80
!	!	!	!LO:LB:g=original	!	!	!	!	!	!	!	!	!	!	!	!	!	!	!	!	!
4F#\	10	.	4A/	.	8a/L	.	2.ryy	4F#\	-re-	4A/	-re-	.	8a\L	-re-	.	4dd\	-re-	.	.	.
.	.	.	.	.	8c#/J	.	.	.	.	.	.	.	8c#\J	.	.	.	.	.	.	.
4F#\	6_	.	4A/	.	8dn/L	.	.	4F#\	-re}	4A/	-re}	.	4dn\	-re}	.	4dd\	-re}	.	.	.
.	.	.	.	.	8f#/	.	.	.	.	.	.	.	.	.	.	.	.	.	.	.
!	!	!	!	!	!	!	!	!	!	!	!	!	!LO:LB:g=original	!	!	!	!	!	!	!
8r	.	.	8r	.	8f#/	.	.	8F#\	{mi-	8d\	mi-	.	8a\	mi-	.	8dd\	mi-	.	.	.
8F#\	.	.	8d/	.	8a/J	.	.	8F#\	-se-	8d\	-ſe-	.	8a\	-ſe-	.	8dd\	-ſe-	.	.	.
=81	=81	=81	=81	=81	=81	=81	=81	=81	=81	=81	=81	=81	=81	=81	=81	=81	=81	=81	=81	=81
4G\	6 5	.	16g/LL	.	16b\LL	.	2.ryy	8G\	-re-	8B\	-re-	.	8b\	-re-	.	8gg\	-re-	.	8gg\L	8bb\L
.	.	.	16b/	.	16gg\	.	.	.	.	.	.	.	.	.	.	.	.	.	.	.
.	.	.	16a/	.	16ff#\	.	.	8G\	-re}	8B\	-re	.	16a\LL	-re	.	16ff#\LL	-re	.	16ff#\L	16aa\L
.	.	.	16g/JJ	.	16ee\JJ	.	.	.	.	.	.	.	16g\JJ	.	.	16ee\JJ	.	.	16ee\JJ	16gg\JJ
!	!	!	!	!	!	!	!	!	!	!	!	!	!LO:LB:g=original	!	!	!	!	!	!	!
4A\	6 4	.	4f#/	.	4dd\	.	.	(4A\	no-	2A\	no-	.	4f#\	no-	.	4dd\	no-	.	4dd\	4ff#\
4AA/	5 3	.	4e/	.	4cc#\	.	.	4AA/)	.	.	.	.	4e\	.	.	4cc#\	.	.	4a/	4ee\
=82	=82	=82	=82	=82	=82	=82	=82	=82	=82	=82	=82	=82	=82	=82	=82	=82	=82	=82	=82	=82
4D\	.	.	4f#/	.	4dd\	.	2.ryy	4D/	-bis	4A\	-bis	.	4f#\	-bis	.	4dd\	-bis	.	4f#/	4dd\
4r	.	.	8r	.	8r	.	.	4r	.	4r	.	.	4r	.	.	4r	.	.	4r	4r
.	.	.	8d/L	.	8f#/L	.	.	.	.	.	.	.	.	.	.	.	.	.	.	.
8r	.	.	8e/	.	8g/	.	.	8r	.	8r	.	.	8r	.	.	8r	.	.	4r	4r
!	!	!	!	!	!	!	!	!	!	!	!	!	!	!	!	!LO:LB:g=original	!	!	!	!
8F#\	10	.	8f#/J	.	8a/J	.	.	16F#\	{mi-	16d\	mi-	.	16a\	{mi-	.	16dd\	mi-	.	.	.
.	.	.	.	.	.	.	.	16F#\	-se-	16d\	-ſe-	.	16a\	-ſe-	.	16dd\	-ſe-	.	.	.
=83	=83	=83	=83	=83	=83	=83	=83	=83	=83	=83	=83	=83	=83	=83	=83	=83	=83	=83	=83	=83
!LO:LB:g=original	!	!	!	!	!	!	!	!	!	!	!	!	!	!	!	!	!	!	!LO:TX:a:t=2	!LO:TX:a:t=2
!	!	!	!	!	!	!	!	!	!	!	!	!	!	!	!	!	!	!	!LO:N:vis=0	!LO:N:vis=0
4G\	10	.	8g/L	.	8b/L	.	2.ryy	4G\	-re-	4c#\	-re-	.	8b\L	-re-	.	4dd\	-re-	.	1.r	1.r
.	.	.	8B/J	.	8d#X/J	.	.	.	.	.	.	.	8d#X\J	.	.	.	.	.	.	.
4G\	6	.	4B/	.	8e/L	.	.	4G\	-re}	4c#\	-re	.	4e\	-re}	.	4ee\	-re	.	.	.
.	.	.	.	.	8g/	.	.	.	.	.	.	.	.	.	.	.	.	.	.	.
8r	.	.	8r	.	8g/	.	.	8r	.	8r	.	.	8r	.	.	8r	.	.	.	.
8G\	10	.	8e/	.	8b/J	.	.	16G\	{mi-	16e\	{mi-	.	16b\	{mi-	.	16ee\	{mi-	.	.	.
.	.	.	.	.	.	.	.	16G\	-se-	16e\	-ſe-	.	16b\	-ſe-	.	16ee\	-ſe-	.	.	.
=84	=84	=84	=84	=84	=84	=84	=84	=84	=84	=84	=84	=84	=84	=84	=84	=84	=84	=84	=84	=84
4F#\	10	.	4A/	.	8a/L	.	2.ryy	4F#\	-re-	4A\	-re-	.	8a\L	-re-	.	4dd\	-re-	.	.	.
.	.	.	.	.	8c#/J	.	.	.	.	.	.	.	8c#\J	.	.	.	.	.	.	.
4F#\	6	.	4A/	.	8dn/L	.	.	4F#\	-re}	4A\	-re}	.	4dn\	-re}	.	4dd\	-re}	.	.	.
.	.	.	.	.	8f#/	.	.	.	.	.	.	.	.	.	.	.	.	.	.	.
8r	.	.	8r	.	8f#/	.	.	8F#\	mi-	8e\	mi-	.	8a\	mi-	.	8dd\	mi-	.	.	.
8F#\	6	.	8d/	.	8a/J	.	.	8F#\	-se-	8d\	-ſe-	.	8a\	-ſe-	.	8dd\	-ſe-	.	.	.
=85	=85	=85	=85	=85	=85	=85	=85	=85	=85	=85	=85	=85	=85	=85	=85	=85	=85	=85	=85	=85
!	!	!	!	!	!	!	!	!LO:LB:g=original	!	!LO:LB:g=original	!	!	!	!	!	!	!	!	!	!LO:LB:g=original
4G\	6 5	.	16g/LL	.	16b\LL	.	2.ryy	8G\	-re-	8B\	-re-	.	8b\	-re-	.	8gg\	-re-	.	8gg\L	8bb\L
.	.	.	16b/	.	16gg\	.	.	.	.	.	.	.	.	.	.	.	.	.	.	.
.	.	.	16a/	.	16ff#\	.	.	8G\	-re	8B\	-re	.	16a\LL	-re	.	16ff#\LL	-re	.	16ff#\L	16aa\L
.	.	.	16g/JJ	.	16ee\JJ	.	.	.	.	.	.	.	16g\JJ	.	.	16ee\JJ	.	.	16ee\JJ	16gg\JJ
!	!	!	!	!	!	!	!	!	!	!	!	!	!LO:LB:g=original	!	!	!	!	!	!	!
4A\	4	.	4f#/	.	4dd\	.	.	4A\	no-	2A\	no-	.	(4f#\	no-	.	(4dd\	no-	.	4dd\	4ff#\
4AA/	3	.	4e/	.	4cc#\	.	.	4AA/	.	.	.	.	4e\)	.	.	4cc#\)	.	.	4a/	4ee\
=86	=86	=86	=86	=86	=86	=86	=86	=86	=86	=86	=86	=86	=86	=86	=86	=86	=86	=86	=86	=86
2D\	.	.	2f#/	.	2dd\	.	2.ryy	2D\	-bis	2A\	-bis	.	2f#\	-bis	.	2dd\	-bis	.	2f#/	2dd\
4A\	.	.	4a/	.	4ee\	.	.	4A\	no-	4c#\	no-	.	4a\	no-	.	4ee\	{no-	.	4a/	4ee\
=87	=87	=87	=87	=87	=87	=87	=87	=87	=87	=87	=87	=87	=87	=87	=87	=87	=87	=87	=87	=87
*	*	*	*	*	*	*	*	*	*	*	*	*	*	*	*	*	*	*	*2\right	*
2d\	.	.	2d/ 2a 2ff#	.	2d/ 2a 2ff#	.	2.ryy	2d\	-bis	2.d\	-bis	.	2a\	-bis	.	2ff#\	-bis}	.	2dd\	2ff#\
!	!	!	!	!	!	!	!	!	!	!	!	!	!	!	!	!	!	!	!LO:TX:a:t=Sancta Maria Tacet	!LO:TX:a:t=Sancta Maria Tacet
4r	.	.	4r	.	4r	.	.	4r	.	.	.	.	4r	.	.	4r	.	.	4r	4r
==	==	==	==	==	==	==	==	==	==	==	==	==	==	==	==	==	==	==	==	==
*-	*-	*-	*-	*-	*-	*-	*-	*-	*-	*-	*-	*-	*-	*-	*-	*-	*-	*-	*-	*-
!!!system-decoration: [(g1)][(g2)][(g3)][(g4)]
!!!RDF**dynam: p=po
!!!RDF**dynam: f=for
!!!RDF**kern: >= above
!!!RDF**kern: <=below
!!!ENC: Anna Matuszewska
!!!END: 24-06-2020
